ocio/luts/AIB3_Apart_Log3_Rec709-D65-BT1886_x33.cube
TITLE "Generated by Resolve"
LUT_3D_SIZE 9
0 0 0.00318914
0.0205539 0.0227207 0.0248417
0.134157 0.0267033 0.00895705
0.363699 0.0418708 0
0.59707 0.0590524 0
0.857145 0.0956436 0.0382391
0.991547 0.268391 0.238132
0.999863 0.501091 0.470161
0.999847 0.825513 0.834501
0 0.0332494 0.030869
0.0176242 0.0424201 0.0209506
0.136919 0.0527962 0.0126497
0.369787 0.0721294 0
0.607492 0.100298 0
0.86215 0.131945 0.030457
0.992309 0.283223 0.234546
1 0.505501 0.470253
0.999954 0.826505 0.834989
0 0.0995499 0.0393835
0 0.112902 0.0193484
0.143984 0.154894 0.0106508
0.386877 0.180346 0.00344854
0.611719 0.181918 0
0.862776 0.185397 0.0230259
0.993149 0.305852 0.230121
0.999969 0.512337 0.47097
1 0.828183 0.835782
0 0.255283 0.0728008
0 0.265003 0.0518502
0.0579995 0.330449 0
0.397726 0.394141 0.0028687
0.666239 0.379828 0.0285191
0.846281 0.339437 0.0486915
0.995377 0.37258 0.222889
0.999847 0.53373 0.473106
0.999771 0.832959 0.837873
0 0.442527 0.230854
0 0.465141 0.193637
0 0.502968 0.113359
0.373724 0.562188 0.0697032
0.681987 0.650904 0.0988785
0.907469 0.608194 0.124895
0.991852 0.552621 0.260441
0.999802 0.597498 0.48481
0.999908 0.847898 0.845197
0 0.630854 0.438529
0 0.650538 0.41268
0 0.683528 0.37438
0.0196231 0.759747 0.217838
0.67483 0.782254 0.289097
0.874281 0.850599 0.309773
0.984955 0.817823 0.361593
0.999985 0.764797 0.567941
0.999878 0.890639 0.868177
0 0.846479 0.693584
0 0.859113 0.688716
0 0.877241 0.680674
0 0.914977 0.648768
0.198581 0.95642 0.535943
0.83061 0.948043 0.597116
0.964248 0.973663 0.658946
0.97969 0.965087 0.740551
0.999054 0.970153 0.93344
0 0.994415 0.947051
0 0.996078 0.947356
0 0.997635 0.947585
0 1 0.946944
0.0711376 1 0.938933
0.484565 0.999557 0.921462
0.922469 0.999496 0.912459
0.996826 0.999649 0.952056
0.998611 0.999619 0.992248
0.260563 0.998993 0.998993
0.267643 0.998825 0.998825
0.278523 0.998825 0.998825
0.30959 0.998886 0.998886
0.396185 0.999573 0.999573
0.599481 0.999695 0.999695
0.893523 0.999664 0.999664
0.998169 0.999634 0.9991
0.999527 0.999527 0.998978
0.0078584 0.0234684 0.0408331
0.0162203 0.0241245 0.0410315
0.132677 0.0252689 0.0285801
0.373419 0.032639 0
0.607294 0.0457008 0.0034638
0.858198 0.088777 0.0716259
0.991104 0.267552 0.252094
0.999878 0.50103 0.473503
0.999847 0.825574 0.835248
0.00347906 0.0301518 0.0417487
0.017731 0.0340581 0.0408026
0.126558 0.0396582 0.0233616
0.361837 0.060441 0
0.612573 0.0818494 0
0.869368 0.119188 0.0572976
0.992569 0.280446 0.247242
1 0.505074 0.473411
0.999954 0.826551 0.835752
0 0.0942092 0.0493629
0 0.0971084 0.0389868
0.133928 0.139803 0.0248875
0.37145 0.163333 0.0212711
0.620218 0.162493 0.00268559
0.872999 0.172519 0.047303
0.993164 0.303105 0.242725
0.999954 0.511864 0.474006
1 0.828168 0.836484
0 0.254612 0.0910048
0 0.261692 0.0736858
0.045716 0.31989 0
0.387411 0.383612 0.0270237
0.65745 0.369741 0.0533608
0.856138 0.329107 0.0632181
0.996063 0.368933 0.232593
0.999847 0.533242 0.476356
0.999771 0.832944 0.838575
0 0.443351 0.246601
0 0.464866 0.212177
0 0.501106 0.136507
0.35996 0.561837 0.0744793
0.679072 0.647776 0.117159
0.908507 0.604715 0.141146
0.991974 0.550668 0.270283
0.999802 0.596887 0.487144
0.999908 0.847898 0.845884
0 0.631235 0.445899
0 0.651011 0.420325
0 0.683238 0.383719
0.00790417 0.760723 0.229923
0.669917 0.782879 0.292699
0.874006 0.850416 0.317098
0.986618 0.817014 0.368383
1 0.764477 0.570062
0.999878 0.890608 0.868589
0 0.846204 0.695445
0 0.858793 0.691035
0 0.877012 0.682963
0 0.914916 0.651637
0.196277 0.956649 0.538964
0.829419 0.948241 0.598428
0.964355 0.973693 0.661158
0.979828 0.965072 0.742
0.999084 0.970123 0.9337
0 0.994354 0.947234
0 0.996002 0.947555
0 0.997604 0.947814
0 1 0.947158
0.070634 1 0.939193
0.484184 0.999557 0.921736
0.922286 0.999512 0.912718
0.996826 0.999649 0.95227
0.998611 0.999619 0.992294
0.260197 0.998993 0.998993
0.267308 0.99884 0.99884
0.278172 0.998825 0.998825
0.309285 0.998886 0.998886
0.395926 0.999573 0.999573
0.599313 0.999695 0.999695
0.893477 0.999664 0.999664
0.998169 0.999634 0.9991
0.999527 0.999527 0.998978
0 0.0495155 0.111177
0.00488289 0.0471962 0.109026
0.10724 0.0452125 0.149432
0.361578 0.04094 0.127855
0.615946 0.0385138 0.0871595
0.857481 0.0817426 0.12221
0.990524 0.266545 0.272496
0.999878 0.501106 0.478874
0.999847 0.825666 0.836408
0 0.0544137 0.114229
0.00714122 0.0521096 0.110857
0.11191 0.0527199 0.144045
0.366796 0.058381 0.118822
0.627573 0.0661936 0.0709697
0.871275 0.109972 0.107729
0.991974 0.279332 0.267903
0.999985 0.505058 0.478691
0.999985 0.826642 0.836927
0 0.126452 0.16466
0 0.122255 0.155413
0.100252 0.127459 0.140734
0.360662 0.130724 0.100771
0.641428 0.129473 0.0534524
0.884535 0.154345 0.0891585
0.993347 0.299016 0.261906
0.999863 0.511391 0.478843
1 0.828183 0.837568
0 0.274357 0.183871
0 0.276967 0.171359
0.0348058 0.292042 0.119295
0.357031 0.35581 0.12549
0.646052 0.354452 0.105638
0.872648 0.313069 0.0862745
0.996277 0.364584 0.250751
0.999863 0.532723 0.481025
0.999771 0.832944 0.839612
0 0.447272 0.276402
0 0.46627 0.247135
0 0.498985 0.18349
0.333165 0.562387 0.0861067
0.67335 0.641627 0.153429
0.909514 0.599359 0.167056
0.993332 0.546349 0.282185
0.999817 0.595987 0.490471
0.999908 0.847883 0.846937
0 0.632319 0.458366
0 0.651972 0.433021
0 0.683207 0.398535
0.00370794 0.761334 0.250721
0.661799 0.784024 0.298634
0.873442 0.849897 0.328893
0.988251 0.816083 0.378195
1 0.763958 0.573693
0.999863 0.890532 0.869169
0 0.845792 0.698741
0 0.858412 0.694606
0 0.876738 0.686564
0 0.914855 0.656123
0.191684 0.95729 0.54406
0.827222 0.948684 0.600336
0.964508 0.973739 0.664469
0.980011 0.965026 0.744244
0.99913 0.970077 0.934081
0 0.994247 0.947524
0 0.995911 0.947845
0 0.997574 0.94815
0 1 0.947478
0.0699474 1 0.93959
0.483619 0.999557 0.922164
0.922072 0.999512 0.913039
0.996826 0.999634 0.952605
0.998611 0.999619 0.992355
0.259632 0.998993 0.998993
0.266773 0.998871 0.998871
0.277638 0.998825 0.998825
0.308812 0.998886 0.998886
0.395529 0.999557 0.999557
0.599039 0.999695 0.999695
0.8934 0.999664 0.999664
0.998169 0.999634 0.9991
0.999527 0.999527 0.998978
0 0.139361 0.288502
0 0.134096 0.28426
0.0349737 0.115511 0.301137
0.331563 0.120012 0.3458
0.575677 0.108324 0.333898
0.802136 0.113375 0.305608
0.987732 0.265568 0.334722
0.999924 0.501488 0.495369
0.999863 0.826001 0.839673
0 0.1467 0.292973
0 0.141497 0.288228
0.039704 0.123095 0.30312
0.333242 0.129366 0.344259
0.582574 0.128618 0.331197
0.824872 0.131029 0.296407
0.990036 0.277302 0.330007
0.999847 0.505257 0.494987
1 0.826963 0.840223
0 0.171237 0.309667
0 0.166888 0.303807
0.0450599 0.1505 0.308064
0.331777 0.163455 0.341695
0.594064 0.16376 0.324758
0.856428 0.158206 0.281117
0.992157 0.296117 0.323995
0.999924 0.511604 0.49514
1 0.828519 0.840803
0 0.34638 0.396429
0 0.344472 0.389838
0.057435 0.332769 0.364187
0.316365 0.328756 0.344701
0.656489 0.30515 0.284367
0.908751 0.268482 0.223011
0.997482 0.352789 0.308492
0.999893 0.531197 0.496147
0.999771 0.83299 0.842557
0 0.49427 0.428824
0 0.5066 0.414084
0 0.524559 0.388342
0.211597 0.561212 0.277043
0.637934 0.614008 0.334051
0.908156 0.583276 0.268208
0.997391 0.533623 0.320043
0.999847 0.594018 0.504128
0.999908 0.847913 0.849775
0 0.639307 0.501503
0 0.658091 0.479301
0 0.68687 0.448997
0 0.764904 0.325719
0.631479 0.789044 0.322576
0.87129 0.848142 0.373983
0.992142 0.812634 0.411749
0.999954 0.762051 0.583658
0.999847 0.890303 0.871077
0 0.844724 0.709514
0 0.857389 0.705135
0 0.87602 0.698238
0 0.915022 0.671229
0.180743 0.958755 0.561593
0.819348 0.950362 0.606195
0.964981 0.973816 0.674525
0.980453 0.964904 0.749905
0.999252 0.96994 0.935302
0 0.993942 0.948577
0 0.995621 0.948913
0 0.997452 0.949371
0 1 0.948684
0.0674907 1 0.941085
0.481834 0.999573 0.923506
0.921141 0.999664 0.91368
0.996841 0.999619 0.953689
0.998611 0.999619 0.992569
0.257847 0.999008 0.999008
0.265156 0.998947 0.998947
0.275929 0.998825 0.998825
0.307362 0.998871 0.998871
0.394263 0.999557 0.999557
0.598215 0.999695 0.999695
0.893187 0.999664 0.999664
0.998154 0.999634 0.9991
0.999527 0.999527 0.998993
0 0.308141 0.501961
0.00108339 0.303914 0.504952
0.0280919 0.294545 0.512383
0.210636 0.25687 0.538399
0.586175 0.258976 0.558663
0.80116 0.228336 0.551064
0.949004 0.314382 0.504295
0.999954 0.504143 0.548287
1 0.827146 0.849592
0 0.312901 0.504479
0.00291447 0.30869 0.507347
0.0309758 0.299596 0.514504
0.213794 0.26247 0.53962
0.587625 0.265431 0.558541
0.804349 0.241047 0.549661
0.954269 0.322545 0.502205
0.999985 0.507973 0.547997
1 0.828138 0.849943
0 0.321859 0.509789
0.0061799 0.317906 0.512062
0.0356298 0.309239 0.518486
0.217151 0.272877 0.542382
0.590051 0.277501 0.558694
0.809323 0.262303 0.546746
0.96202 0.334569 0.498894
0.999908 0.513848 0.547692
0.999802 0.829465 0.850278
0 0.374914 0.535439
0.0164034 0.372885 0.535821
0.0527657 0.368002 0.538415
0.224399 0.336797 0.563546
0.59939 0.346471 0.563561
0.829282 0.332235 0.539956
0.983551 0.372061 0.489448
0.999832 0.532692 0.548165
0.999893 0.834165 0.852049
0 0.57644 0.629511
0 0.582315 0.626108
0 0.590188 0.622156
0.22681 0.600473 0.594751
0.595605 0.597711 0.570321
0.915572 0.549401 0.50425
0.999435 0.503334 0.457252
0.999756 0.589837 0.551736
0.999924 0.848127 0.858518
0 0.69575 0.66746
0 0.71194 0.66096
0 0.734707 0.65182
0 0.791913 0.612696
0.439155 0.831693 0.477317
0.858381 0.84506 0.572671
0.998367 0.804486 0.532357
0.999908 0.755993 0.615015
0.999863 0.890333 0.87895
0 0.8448 0.74789
0 0.858 0.745434
0 0.876829 0.741146
0 0.918441 0.723507
0.153521 0.962798 0.633906
0.789136 0.957137 0.630488
0.966827 0.974212 0.714977
0.983886 0.963699 0.771374
0.999786 0.969589 0.939391
0 0.992981 0.952361
0 0.994705 0.952651
0 0.997116 0.953033
0 1 0.952911
0.0591745 1 0.946593
0.476081 0.999634 0.929534
0.918868 0.99968 0.918502
0.997269 0.99942 0.956466
0.998611 0.999619 0.992844
0.252293 0.998993 0.998993
0.259785 0.998993 0.998993
0.270695 0.998764 0.998764
0.303029 0.998917 0.998917
0.390433 0.999496 0.999496
0.595575 0.999695 0.999695
0.89247 0.999664 0.999664
0.998154 0.999634 0.99913
0.999527 0.999527 0.999023
0.0559396 0.516121 0.767651
0.0711528 0.513649 0.771282
0.0953994 0.509636 0.776028
0.182834 0.496086 0.785672
0.489479 0.469306 0.763149
0.832914 0.445792 0.770764
0.961761 0.44506 0.74258
0.999908 0.553628 0.705547
0.999863 0.832059 0.88101
0.0567788 0.518746 0.768246
0.0718547 0.515999 0.771588
0.0962387 0.512337 0.776654
0.183841 0.498848 0.786618
0.490608 0.471824 0.763287
0.83357 0.449058 0.770855
0.962783 0.45034 0.742657
0.999908 0.556832 0.705943
0.999863 0.833051 0.881422
0.0580911 0.52256 0.76907
0.0731212 0.520287 0.772473
0.0978561 0.516579 0.777768
0.184848 0.503288 0.787533
0.492439 0.476387 0.763729
0.834531 0.454871 0.77116
0.963928 0.458366 0.742611
0.999969 0.561486 0.706615
1 0.834516 0.882109
0.0629892 0.536706 0.772427
0.0767681 0.53547 0.775982
0.101625 0.531762 0.780682
0.187839 0.519814 0.791928
0.496834 0.492454 0.765087
0.838346 0.475196 0.772274
0.967666 0.484916 0.743145
0.999847 0.576043 0.708385
0.999817 0.839002 0.883421
0.0664378 0.613596 0.783505
0.0807507 0.613352 0.786664
0.103212 0.613443 0.791363
0.180743 0.610254 0.805264
0.499077 0.582467 0.789334
0.851316 0.584161 0.779507
0.978729 0.57232 0.746365
0.999863 0.62063 0.714321
0.999924 0.852384 0.889525
0 0.772686 0.823316
0 0.782895 0.827848
0 0.797055 0.834043
0 0.8327 0.845243
0.385397 0.862577 0.825757
0.838712 0.843519 0.803861
0.999496 0.799496 0.766339
0.999756 0.751751 0.735119
0.999878 0.89163 0.907195
0 0.885649 0.881529
0 0.896971 0.885191
0 0.912062 0.889296
0 0.945296 0.895842
0.0866865 0.977172 0.87509
0.671504 0.983932 0.814038
0.97174 0.975006 0.864698
0.995773 0.959075 0.846296
0.999817 0.969345 0.953292
0 0.991913 0.966705
0 0.993362 0.967453
0 0.995575 0.9682
0 1 0.969223
0.0399786 1 0.966415
0.455924 0.99971 0.95169
0.910506 0.999664 0.938155
0.997742 0.999329 0.967254
0.998611 0.999619 0.994049
0.234531 0.999069 0.999069
0.242329 0.999039 0.999039
0.254093 0.998978 0.998978
0.288289 0.998917 0.998917
0.37818 0.999374 0.999374
0.58761 0.999649 0.999649
0.89044 0.999619 0.999619
0.998123 0.999603 0.999603
1 1 1
0.177432 0.749691 0.976486
0.187778 0.748669 0.976638
0.20383 0.747021 0.976761
0.252995 0.741878 0.976944
0.392844 0.728313 0.973175
0.740337 0.707027 0.929351
0.974334 0.676448 0.933684
0.999557 0.682292 0.918898
0.999863 0.852613 0.953902
0.177249 0.750607 0.976547
0.18764 0.749569 0.976684
0.203677 0.747936 0.976822
0.252918 0.742794 0.976989
0.392767 0.729244 0.973312
0.740658 0.707897 0.929427
0.974411 0.677592 0.933776
0.999557 0.684092 0.919173
0.999817 0.853361 0.95407
0.176959 0.752041 0.976623
0.187411 0.750988 0.976745
0.203281 0.749233 0.976776
0.252766 0.744213 0.977066
0.392767 0.730663 0.973693
0.741146 0.709239 0.929549
0.974517 0.679362 0.933913
0.99939 0.686656 0.919402
0.999817 0.854582 0.954406
0.176226 0.756512 0.97702
0.18616 0.755383 0.976959
0.202045 0.753826 0.976959
0.251957 0.748592 0.977249
0.39205 0.735546 0.974395
0.742596 0.71368 0.929931
0.974807 0.684886 0.934401
0.999496 0.695201 0.920806
0.999863 0.858381 0.955367
0.171618 0.772045 0.977234
0.181399 0.771481 0.9776
0.196551 0.770535 0.978058
0.246006 0.76585 0.978241
0.386923 0.753109 0.977035
0.746258 0.729397 0.931075
0.976028 0.705715 0.936538
0.999786 0.721569 0.924361
0.999939 0.869978 0.958618
0.104997 0.850843 0.97673
0.115343 0.85069 0.977218
0.130648 0.850217 0.977737
0.179339 0.849165 0.979751
0.330266 0.842802 0.982269
0.737911 0.810437 0.953582
0.978393 0.809384 0.947631
0.999954 0.805264 0.937331
0.999924 0.903792 0.967437
0 0.949981 0.978119
0 0.954391 0.980072
0 0.959274 0.98204
0 0.971359 0.986847
0.0255589 0.987991 0.99263
0.582483 0.9897 0.984604
0.958816 0.971145 0.972351
0.999924 0.9626 0.968093
0.999893 0.971191 0.986801
0 1 1
0 1 1
0 1 1
0 1 1
0.0315099 1 1
0.410574 0.999741 0.998291
0.892851 0.99968 0.992874
0.998871 0.999069 0.993881
0.999039 0.998993 0.998535
0.180438 1 1
0.189151 0.999863 0.999863
0.202869 0.999664 0.999664
0.243336 0.999023 0.999023
0.344472 0.999161 0.999161
0.567376 0.999588 0.999588
0.88452 0.999603 0.999603
0.998108 0.999603 0.999603
1 1 1
0.450736 0.92285 0.999847
0.453864 0.922637 0.999802
0.458488 0.922347 0.999863
0.473259 0.92137 0.999969
0.52015 0.917891 0.999985
0.64976 0.907912 0.999939
0.91664 0.892012 0.99556
0.999496 0.880491 0.996963
1 0.926406 0.999359
0.450736 0.923033 0.999878
0.453864 0.922835 0.999832
0.458457 0.922545 0.999863
0.473228 0.921569 0.999969
0.52015 0.918105 0.999985
0.649775 0.90811 0.999954
0.916701 0.892195 0.99556
0.999481 0.880781 0.996979
0.999969 0.926696 0.999298
0.450752 0.923323 0.999939
0.45388 0.92311 0.999893
0.458427 0.92285 0.999878
0.473198 0.921874 0.999969
0.520134 0.91841 0.999985
0.649805 0.908431 0.999954
0.916793 0.892485 0.995575
0.999481 0.881193 0.996979
0.999878 0.927138 0.999222
0.450645 0.924285 0.999985
0.453803 0.924056 0.999985
0.458427 0.923766 1
0.473045 0.92285 0.999969
0.520043 0.919387 0.999985
0.649882 0.909468 0.999954
0.917098 0.89337 0.99559
0.99939 0.8822 0.996887
0.999786 0.928725 0.999146
0.449744 0.927504 0.999985
0.45304 0.927352 1
0.457694 0.927062 1
0.472313 0.925826 0.999893
0.519265 0.922713 0.999985
0.649943 0.912886 0.999954
0.917815 0.896147 0.995453
0.99942 0.885573 0.996994
0.999969 0.934066 0.99939
0.443519 0.938689 0.999863
0.44683 0.938537 0.999878
0.451759 0.938354 0.999924
0.467399 0.937728 1
0.514626 0.934722 1
0.648539 0.925277 1
0.920241 0.906859 0.99559
0.999374 0.89839 0.997192
0.999954 0.947555 0.999435
0.385946 0.982406 0.999985
0.389639 0.98233 1
0.39501 0.982177 0.999985
0.412284 0.981704 0.999954
0.467384 0.980392 1
0.613977 0.975204 0.999878
0.914809 0.952773 0.999802
0.99942 0.95465 0.998322
0.999817 0.979324 0.999817
0.127794 1 1
0.132021 1 1
0.13846 1 1
0.156985 1 1
0.214206 0.999542 0.999542
0.446448 0.999695 0.999695
0.862455 0.999695 0.999695
0.996841 0.998245 0.999969
1 1 1
0.406806 0.999664 0.999664
0.414633 0.999649 0.999649
0.426474 0.999573 0.999573
0.463004 0.999542 0.999542
0.551873 0.999619 0.999619
0.726986 0.999542 0.999542
0.945678 0.999512 0.999512
0.998596 0.999603 0.999603
1 1 1
0.941833 0.999725 0.999725
0.942107 0.99971 0.99971
0.942519 0.99968 0.99968
0.943832 0.999619 0.999619
0.947951 0.999542 0.999542
0.961868 0.999588 0.999588
0.986313 0.999496 0.999496
0.999329 0.999161 0.999969
0.999863 0.998825 0.999863
0.941833 0.999725 0.999725
0.942107 0.99971 0.99971
0.942519 0.999695 0.999695
0.943847 0.999619 0.999619
0.947967 0.999527 0.999527
0.961883 0.999588 0.999588
0.986328 0.999496 0.999496
0.999329 0.999161 0.999969
0.999863 0.998825 0.999863
0.941848 0.999725 0.999725
0.942123 0.99971 0.99971
0.942535 0.99968 0.99968
0.943862 0.999619 0.999619
0.947967 0.999527 0.999527
0.961898 0.999588 0.999588
0.986328 0.999496 0.999496
0.999329 0.999161 0.999969
0.999863 0.998825 0.999863
0.941878 0.999725 0.999725
0.942153 0.99971 0.99971
0.942565 0.99968 0.99968
0.943893 0.999619 0.999619
0.948013 0.999542 0.999542
0.961929 0.999588 0.999588
0.986358 0.999496 0.999496
0.999329 0.999161 0.999969
0.999863 0.99884 0.999863
0.941985 0.999725 0.999725
0.942245 0.999695 0.999695
0.942672 0.99968 0.99968
0.943984 0.999603 0.999603
0.948119 0.999527 0.999527
0.962066 0.999588 0.999588
0.986465 0.999496 0.999496
0.999344 0.999176 0.999969
0.999863 0.998856 0.999863
0.942199 0.99971 0.99971
0.942489 0.999695 0.999695
0.942931 0.999664 0.999664
0.944274 0.999588 0.999588
0.948455 0.999542 0.999542
0.962341 0.999588 0.999588
0.986786 0.999496 0.999496
0.999359 0.999207 0.999969
0.999863 0.998856 0.999863
0.942077 0.99971 0.99971
0.942382 0.999695 0.999695
0.942824 0.999664 0.999664
0.944244 0.999588 0.999588
0.94873 0.999542 0.999542
0.962386 0.999588 0.999588
0.987457 0.999527 0.999527
0.999374 0.999329 0.999969
0.999863 0.998856 0.999863
0.929931 0.999619 0.999619
0.930312 0.999619 0.999619
0.93077 0.999649 0.999649
0.932479 0.99968 0.99968
0.938186 0.99968 0.99968
0.955413 0.999588 0.999588
0.985275 0.999496 0.999496
0.9991 0.999603 0.999603
1 1 1
0.689326 0.999573 0.999573
0.6916 0.999588 0.999588
0.695155 0.999588 0.999588
0.705806 0.999695 0.999695
0.735912 0.999603 0.999603
0.816983 0.999634 0.999634
0.950118 0.999527 0.999527
0.998596 0.999603 0.999603
1 1 1
