ocio/luts/AIB3_Apart_Log3_Rec709-D65-BT1886_x33.cube
TITLE "Generated by Resolve"
LUT_3D_SIZE 33
0 0 0.00318914
0 0 0.00318914
0.002533 0.00444038 0.00859083
0.00877394 0.0207828 0.0269474
0.0205539 0.0227207 0.0248417
0.0349889 0.0226902 0.0216373
0.0589303 0.0230259 0.0181125
0.0910201 0.0241093 0.0138552
0.134157 0.0267033 0.00895705
0.186786 0.029572 0.00221256
0.245975 0.0328679 0
0.305043 0.0371862 0
0.363699 0.0418708 0
0.422446 0.0466621 0
0.480354 0.0510872 0
0.538018 0.0550393 0
0.59707 0.0590524 0
0.65893 0.0631113 0
0.724773 0.0681926 0
0.791775 0.0778973 0.010956
0.857145 0.0956436 0.0382391
0.913497 0.123735 0.0763104
0.954223 0.162997 0.12398
0.978607 0.212299 0.178485
0.991547 0.268391 0.238132
0.997436 0.327642 0.297032
0.999451 0.386023 0.352651
0.999985 0.443336 0.408667
0.999863 0.501091 0.470161
0.999954 0.563317 0.541833
0.999771 0.639139 0.628046
0.999832 0.713573 0.717067
0.999847 0.825513 0.834501
0 0.00241093 0.00616464
0 0.00469978 0.00534066
0.00325017 0.00735485 0.010544
0.00947585 0.0220798 0.0283665
0.0218967 0.0227054 0.0244602
0.0370794 0.0229496 0.0213474
0.0606088 0.023682 0.0179446
0.0923781 0.0252079 0.0136416
0.134707 0.0283818 0.00886549
0.186465 0.0320134 0.00236515
0.244923 0.0357824 0
0.303655 0.0412451 0
0.362219 0.0471046 0
0.421149 0.0527352 0
0.480293 0.0576944 0
0.53843 0.0630655 0
0.59855 0.0682841 0
0.661463 0.0726635 0
0.72781 0.0780346 0
0.794888 0.0875105 0.00767529
0.859663 0.103914 0.0348058
0.915068 0.13048 0.0733654
0.955047 0.168338 0.121279
0.978988 0.216526 0.176242
0.992081 0.271656 0.237125
0.997635 0.330083 0.296376
0.999481 0.387869 0.352209
0.999985 0.444724 0.408453
0.999863 0.502113 0.4701
0.999969 0.564095 0.541878
0.999771 0.639689 0.628122
0.999908 0.713939 0.717235
0.999847 0.825772 0.834577
0 0.0137636 0.0183719
0 0.0144656 0.0190127
0.00233463 0.0159152 0.0188602
0.0110475 0.0221714 0.027863
0.023331 0.0230106 0.024033
0.0393072 0.0238499 0.0209659
0.0619059 0.0249638 0.0173495
0.0934462 0.0274815 0.0135348
0.135225 0.0310979 0.00860609
0.187442 0.0357061 0.00260929
0.246052 0.0404822 0
0.30515 0.0463874 0
0.363989 0.0528572 0
0.423651 0.0590219 0
0.483238 0.0660716 0
0.541787 0.0726329 0
0.601877 0.0775311 0
0.664195 0.082948 0
0.72987 0.0889906 0
0.796063 0.0981918 0.00663767
0.86038 0.113481 0.0332341
0.91519 0.138537 0.0714885
0.95491 0.175006 0.11928
0.978653 0.22179 0.174441
0.991928 0.275395 0.236011
0.99762 0.332906 0.295949
0.999512 0.389975 0.351873
0.999725 0.445991 0.408042
0.999863 0.503227 0.470069
0.999954 0.564874 0.541924
0.999786 0.640223 0.628229
0.999969 0.714305 0.717388
0.999863 0.826017 0.834699
0.00534066 0.0256352 0.0293126
0.00508125 0.0259403 0.0293431
0.00495918 0.0262913 0.0293736
0.00863661 0.0276036 0.0274662
0.0224613 0.0307469 0.0230411
0.0394751 0.0315099 0.0215305
0.0625467 0.0328832 0.0192111
0.0942092 0.0348821 0.0149081
0.136751 0.0383612 0.00944533
0.188922 0.0424353 0.00248722
0.248325 0.0471809 0
0.307774 0.0533303 0
0.366567 0.0607462 0
0.426719 0.0682689 0
0.486473 0.0756847 0
0.545312 0.0832227 0
0.604898 0.0887007 0
0.667262 0.0927596 0
0.731884 0.099443 0
0.797391 0.10837 0.0055848
0.861433 0.122972 0.0318151
0.915587 0.146624 0.0698253
0.954757 0.18143 0.117311
0.978637 0.226963 0.172976
0.992187 0.279286 0.23534
0.997711 0.335576 0.295644
0.99971 0.39205 0.351934
0.999908 0.447517 0.408087
1 0.504326 0.470253
0.999954 0.565728 0.542
0.999893 0.640772 0.628428
1 0.714687 0.717525
0.999908 0.826261 0.834836
0 0.0332494 0.030869
0 0.0336919 0.030808
0 0.0342718 0.0305791
0.00283818 0.0364843 0.028275
0.0176242 0.0424201 0.0209506
0.0392309 0.0454566 0.0201267
0.062562 0.0476692 0.020325
0.0950332 0.0495308 0.0179294
0.136919 0.0527962 0.0126497
0.18938 0.0564889 0.00451667
0.249699 0.0601358 0
0.309789 0.0654612 0
0.369787 0.0721294 0
0.429587 0.0799878 0
0.48893 0.0880903 0
0.547967 0.0939651 0
0.607492 0.100298 0
0.669734 0.105028 0
0.733883 0.109361 0
0.798733 0.118227 0.00462348
0.86215 0.131945 0.030457
0.915785 0.154314 0.0679179
0.954574 0.187701 0.115343
0.978469 0.231861 0.171374
0.992309 0.283223 0.234546
0.997803 0.338445 0.295293
0.999725 0.394202 0.351843
0.999908 0.449119 0.408118
1 0.505501 0.470253
0.999954 0.566583 0.542077
0.999939 0.641352 0.628611
1 0.715114 0.717647
0.999954 0.826505 0.834989
0 0.043534 0.032578
0 0.044007 0.0322728
0 0.0447395 0.0317998
0 0.0468757 0.0288548
0.00793469 0.0545815 0.0187228
0.0356146 0.0605173 0.0157931
0.0645914 0.0642405 0.0196231
0.0962387 0.0673381 0.0177768
0.139391 0.0705425 0.0157015
0.190738 0.0749065 0.00909438
0.25069 0.0791485 0.000228885
0.311055 0.0838788 0
0.371328 0.0887312 0
0.431662 0.0943923 0
0.491478 0.100649 0
0.549325 0.107652 0
0.609613 0.11162 0
0.67126 0.117144 0
0.735698 0.120851 0
0.800076 0.127794 0.00369268
0.862898 0.140795 0.0288548
0.915938 0.161929 0.0661021
0.954589 0.194171 0.113832
0.978408 0.237064 0.169909
0.992309 0.286854 0.233616
0.997879 0.341329 0.294957
0.999496 0.396094 0.351492
0.999908 0.450721 0.408148
0.999832 0.506477 0.470176
0.999817 0.5673 0.542016
0.999954 0.641962 0.628717
1 0.715541 0.717769
1 0.826764 0.835157
0 0.0567788 0.035111
0 0.0574044 0.0343938
0 0.0581369 0.0330358
0 0.0601968 0.029984
0 0.0694285 0.0180209
0.0229191 0.0770581 0.00859083
0.0646982 0.0821698 0.0160983
0.0979934 0.088716 0.0163119
0.142855 0.0926986 0.0151675
0.195438 0.0966506 0.0123598
0.2533 0.101869 0.0053254
0.312398 0.107256 0
0.372244 0.112276 0
0.433433 0.115755 0
0.493019 0.11989 0
0.551507 0.124025 0
0.610819 0.128618 0
0.672312 0.131243 0
0.73608 0.135225 0
0.801511 0.140093 0.0021973
0.863767 0.151431 0.0269017
0.91606 0.171191 0.0639353
0.954269 0.201831 0.111391
0.978241 0.243046 0.168383
0.992508 0.2916 0.2327
0.997894 0.344533 0.294469
0.999527 0.398703 0.351385
0.999908 0.452705 0.408179
0.999802 0.507897 0.470298
0.999802 0.568215 0.542168
0.999939 0.642695 0.628855
1 0.71606 0.717906
1 0.8271 0.835325
0 0.0753796 0.0376593
0 0.0757 0.0369116
0 0.0766918 0.035111
0 0.0783856 0.0316472
0 0.0881666 0.0187076
0.00674449 0.0983291 0.00425727
0.0513161 0.104158 0.00320439
0.0996414 0.112932 0.0144656
0.143938 0.121691 0.0121004
0.201816 0.125429 0.0118563
0.260868 0.130022 0.00918593
0.317861 0.136522 0.00335698
0.376501 0.142443 0
0.436484 0.146838 0
0.495781 0.148669 0
0.553124 0.149722 0
0.611704 0.150469 0
0.672038 0.151797 0
0.735759 0.153445 0
0.800671 0.157198 0.00175479
0.864897 0.165515 0.0243229
0.916182 0.183429 0.0608225
0.953811 0.21207 0.108141
0.978225 0.251179 0.166201
0.99266 0.297597 0.231403
0.998016 0.349187 0.293919
0.99971 0.402121 0.3514
0.999908 0.455329 0.40824
0.999802 0.509834 0.470512
0.999893 0.569589 0.542519
0.999954 0.643717 0.629068
1 0.716762 0.718105
1 0.827573 0.835523
0 0.0995499 0.0393835
0 0.100099 0.0383917
0 0.100786 0.0365454
0 0.102907 0.0325017
0 0.112902 0.0193484
0 0.12491 0.00276188
0.0294499 0.135454 0
0.0918288 0.140581 0.00224308
0.143984 0.154894 0.0106508
0.200885 0.164462 0.00564584
0.269596 0.167666 0.00775158
0.329793 0.173571 0.0069276
0.386877 0.180346 0.00344854
0.444785 0.185122 0
0.50106 0.187121 0
0.556161 0.184878 0
0.611719 0.181918 0
0.671336 0.179355 0
0.73341 0.178012 0
0.798016 0.179355 0.00274662
0.862776 0.185397 0.0230259
0.916289 0.19942 0.056733
0.95349 0.225483 0.104204
0.978317 0.261906 0.163455
0.993149 0.305852 0.230121
0.998352 0.355306 0.293355
0.999557 0.406531 0.350958
0.999832 0.458488 0.408225
0.999969 0.512337 0.47097
0.999893 0.571466 0.54287
0.999939 0.645029 0.629419
1 0.717723 0.718364
1 0.828183 0.835782
0 0.128985 0.0421302
0 0.130419 0.04094
0 0.130755 0.0389715
0 0.133455 0.0343938
0 0.142428 0.0220493
0 0.157 0.00239567
0.00492866 0.170077 0
0.0676432 0.179416 0
0.144717 0.186404 0.0056611
0.198611 0.207538 0.00448615
0.266758 0.218387 0
0.339223 0.221378 0.00459297
0.400931 0.225559 0.00480659
0.457481 0.228962 0.00296025
0.510765 0.230457 0.00236515
0.561807 0.228748 0.00144961
0.613657 0.223255 0
0.668605 0.216922 0
0.729839 0.210971 0
0.793194 0.208606 0.00402838
0.857603 0.211307 0.0231785
0.913252 0.221714 0.0543374
0.953307 0.242679 0.0996262
0.978729 0.275578 0.160174
0.993515 0.316487 0.228138
0.998474 0.363149 0.292317
0.99971 0.412558 0.350698
0.999832 0.463111 0.408331
0.999985 0.515785 0.471336
0.999893 0.573968 0.543343
0.999939 0.646799 0.629892
0.999893 0.718837 0.718669
1 0.829023 0.836118
0 0.164492 0.046128
0 0.166323 0.0448463
0 0.167056 0.0426184
0 0.169558 0.0372778
0 0.177035 0.0266423
0 0.192905 0.00552377
0 0.209262 0
0.0353246 0.222797 0
0.12195 0.231052 0
0.210895 0.242527 0.0104372
0.263737 0.268833 0.000259403
0.334035 0.278828 0
0.410681 0.277516 0.00213626
0.473655 0.277806 0.00393683
0.527062 0.277852 0.00505074
0.575631 0.275776 0.00862135
0.623133 0.271595 0.00880446
0.672374 0.263462 0.00866712
0.725612 0.254246 0.00796521
0.7879 0.246494 0.00968948
0.851331 0.244648 0.0238804
0.908385 0.250263 0.0548257
0.951751 0.266209 0.0984054
0.97966 0.293721 0.15642
0.99411 0.330282 0.225498
0.998657 0.373571 0.290974
0.99968 0.42034 0.350134
0.999771 0.468925 0.408377
0.999771 0.520088 0.471519
1 0.577234 0.544045
0.999741 0.648936 0.630304
0.999756 0.720348 0.719097
0.999908 0.829938 0.836484
0 0.20708 0.0560769
0 0.209094 0.0538949
0 0.210071 0.0507057
0 0.211841 0.0458839
0 0.217136 0.0368963
0 0.232517 0.016495
0 0.250996 0
0.0109102 0.268544 0
0.088716 0.280751 0
0.193759 0.288502 0.00170901
0.281132 0.303502 0.0163119
0.329809 0.330983 0
0.402686 0.339803 0
0.484047 0.333989 0.00325017
0.545602 0.330495 0.00766003
0.596277 0.327214 0.0138399
0.641611 0.322591 0.0185397
0.687053 0.316335 0.0215152
0.733852 0.305882 0.0216678
0.785229 0.29453 0.0231479
0.846967 0.286534 0.0324407
0.904204 0.286946 0.0575875
0.949386 0.296971 0.101076
0.979614 0.31783 0.156405
0.995026 0.348363 0.222187
0.999039 0.387259 0.289372
0.999619 0.430686 0.349401
0.999939 0.476936 0.408743
0.999924 0.52607 0.472251
0.999832 0.581415 0.544518
0.999878 0.651957 0.631296
0.999924 0.722469 0.720027
0.999771 0.831159 0.837003
0 0.255283 0.0728008
0 0.257527 0.0698863
0 0.258946 0.0657969
0 0.260807 0.0605783
0 0.265003 0.0518502
0 0.275227 0.0376135
0 0.29395 0.0124056
0 0.314366 0
0.0579995 0.330449 0
0.160006 0.338491 0
0.27332 0.345159 0.0173495
0.347814 0.366415 0.0242313
0.397726 0.394141 0.0028687
0.473182 0.401328 0
0.557122 0.39202 0.0111696
0.617823 0.385855 0.0205692
0.666239 0.379828 0.0285191
0.710063 0.373358 0.0332341
0.753384 0.364721 0.0370794
0.797604 0.352346 0.0403449
0.846281 0.339437 0.0486915
0.902251 0.332464 0.068864
0.947066 0.335821 0.10547
0.978759 0.349172 0.15996
0.995377 0.37258 0.222889
0.999054 0.405005 0.287114
0.999725 0.444266 0.348653
0.999878 0.487251 0.408927
0.999847 0.53373 0.473106
1 0.587198 0.545815
0.999878 0.656092 0.632395
0.999939 0.725383 0.721035
0.999771 0.832959 0.837873
0 0.305318 0.102525
0 0.308217 0.0980545
0 0.311101 0.0927138
0 0.313344 0.0864424
0 0.316609 0.0784314
0 0.323705 0.0661631
0 0.337713 0.045182
0 0.358404 0.0140383
0.0354925 0.377218 0
0.120775 0.389517 0
0.243076 0.39411 0.0144198
0.35024 0.405112 0.0385748
0.413657 0.432883 0.0360571
0.469886 0.460273 0.0168307
0.544945 0.46566 0.0107881
0.628565 0.453559 0.0258793
0.687846 0.444602 0.0390173
0.734783 0.436164 0.0480354
0.777203 0.427283 0.0516213
0.818784 0.416464 0.0564584
0.859937 0.402548 0.0652934
0.902617 0.389075 0.0850385
0.946151 0.383429 0.11722
0.977401 0.389105 0.164614
0.994995 0.404273 0.227085
0.999588 0.429053 0.288441
0.999817 0.462028 0.347677
0.999985 0.500786 0.4094
0.999878 0.543847 0.474342
0.999939 0.594598 0.547234
0.999817 0.66128 0.633585
0.999878 0.729198 0.722087
0.999954 0.835279 0.839216
0 0.35285 0.138888
0 0.357275 0.134005
0 0.361318 0.127855
0 0.364797 0.120027
0 0.36846 0.110887
0 0.373144 0.10045
0 0.382544 0.0829633
0 0.400534 0.0524605
0.0133516 0.421592 0.0131228
0.0832685 0.438605 0
0.197589 0.44651 0.00540169
0.326299 0.452216 0.0406043
0.427893 0.469139 0.0655985
0.481361 0.502159 0.054902
0.543923 0.52726 0.0380713
0.615625 0.529793 0.0321508
0.696284 0.51548 0.0484779
0.75375 0.504372 0.0623636
0.798947 0.493889 0.0694591
0.839994 0.483055 0.0722972
0.878981 0.470436 0.0791943
0.913664 0.455634 0.098085
0.945678 0.44239 0.131365
0.975769 0.438056 0.175891
0.99382 0.444755 0.232242
0.999573 0.460761 0.293416
0.99968 0.48574 0.350576
0.999832 0.518227 0.409812
0.999878 0.557198 0.47599
0.999863 0.604425 0.549126
1 0.668467 0.635721
0.999878 0.734066 0.723827
0.999954 0.838453 0.840757
0 0.398245 0.181598
0 0.403647 0.175219
0 0.408179 0.168093
0 0.413275 0.159487
0 0.418235 0.148714
0 0.423133 0.137636
0 0.429984 0.122957
0 0.442222 0.0985275
0 0.463249 0.0574655
0.0441138 0.483955 0.0100557
0.145098 0.498817 0
0.286549 0.503578 0.0318151
0.410315 0.51339 0.0756695
0.503929 0.534585 0.0954147
0.54963 0.569818 0.0803082
0.614939 0.59089 0.0650339
0.68249 0.591943 0.0601358
0.758099 0.576089 0.0767529
0.813474 0.563485 0.0894026
0.85713 0.551736 0.0943618
0.896712 0.539483 0.0989395
0.928618 0.525612 0.112154
0.953521 0.510155 0.143038
0.974807 0.497353 0.190158
0.992538 0.493599 0.244648
0.999695 0.501198 0.300328
0.999802 0.51722 0.357977
0.999893 0.541817 0.414847
0.999741 0.57438 0.478035
0.999908 0.617334 0.551797
0.999924 0.677668 0.638254
0.999817 0.740505 0.726101
0.99971 0.842405 0.842527
0 0.442527 0.230854
0 0.447639 0.223301
0 0.453086 0.214359
0 0.459037 0.204196
0 0.465141 0.193637
0 0.470832 0.182467
0 0.477836 0.167773
0 0.487694 0.146395
0 0.502968 0.113359
0.00259403 0.525689 0.063447
0.0882734 0.546715 0.0126345
0.22681 0.557748 0.0183261
0.373724 0.562188 0.0697032
0.493919 0.574411 0.116533
0.57435 0.599771 0.128161
0.616571 0.63386 0.112245
0.681987 0.650904 0.0988785
0.743847 0.65069 0.0941787
0.812482 0.634913 0.109041
0.865263 0.621057 0.119768
0.907469 0.608194 0.124895
0.940642 0.594858 0.134768
0.963958 0.580362 0.158572
0.97998 0.56492 0.203159
0.991852 0.552621 0.260441
0.998856 0.549371 0.314366
0.999817 0.557076 0.367651
0.999878 0.572656 0.424796
0.999802 0.597498 0.48481
0.999847 0.633967 0.55494
1 0.689784 0.641505
0.999985 0.749325 0.729351
0.999908 0.847898 0.845197
0 0.486366 0.282628
0 0.491783 0.27451
0 0.497551 0.264576
0 0.503822 0.254749
0 0.509896 0.245426
0 0.516381 0.235035
0 0.523827 0.221851
0 0.533883 0.201373
0 0.547799 0.171679
0 0.566491 0.129412
0.0289006 0.588769 0.0734112
0.147066 0.609888 0.0247196
0.311971 0.61622 0.0501106
0.45832 0.62002 0.115709
0.572992 0.634012 0.159777
0.638056 0.662272 0.163897
0.679744 0.69308 0.150546
0.742809 0.707744 0.142916
0.796582 0.705806 0.134783
0.857664 0.691432 0.145907
0.907256 0.677256 0.155444
0.945769 0.66334 0.165087
0.971023 0.649119 0.184161
0.986175 0.634089 0.221836
0.994446 0.618936 0.274601
0.998779 0.607507 0.332296
0.999969 0.60441 0.384909
0.999924 0.611887 0.438117
0.999908 0.627817 0.497017
0.999725 0.656321 0.56289
0.999878 0.705348 0.645899
0.999939 0.760647 0.73315
0.999832 0.854887 0.848692
0 0.532036 0.333623
0 0.537758 0.324636
0 0.543435 0.315343
0 0.548974 0.307042
0 0.555535 0.298405
0 0.561517 0.290394
0 0.569589 0.279103
0 0.579568 0.264073
0 0.593378 0.238468
0 0.610864 0.200626
0 0.632044 0.149248
0.0676585 0.651774 0.0922255
0.218799 0.669963 0.0489815
0.392447 0.672679 0.0946975
0.537621 0.675944 0.168765
0.645457 0.690837 0.206607
0.695445 0.720928 0.204974
0.737652 0.747173 0.195895
0.794446 0.758923 0.190372
0.841398 0.756878 0.18262
0.892866 0.744442 0.189868
0.936339 0.73077 0.201495
0.970977 0.716152 0.219791
0.988663 0.701457 0.250492
0.996719 0.686748 0.295079
0.999786 0.672648 0.350286
0.999802 0.661265 0.407004
0.999924 0.658198 0.45951
0.999985 0.666255 0.512871
0.999985 0.685634 0.576776
0.999802 0.725872 0.654673
0.999802 0.775143 0.738125
0.999771 0.864118 0.853071
0 0.580819 0.384192
0 0.585763 0.376196
0 0.591424 0.368368
0 0.59646 0.360708
0 0.602213 0.35375
0 0.60824 0.346502
0 0.615076 0.338338
0 0.625299 0.325093
0 0.637888 0.307652
0 0.655131 0.278065
0 0.675532 0.235554
0 0.697139 0.177234
0.116716 0.712779 0.123186
0.290715 0.727916 0.0887617
0.470558 0.726574 0.152224
0.610132 0.730053 0.227512
0.711025 0.744823 0.257267
0.747845 0.775143 0.252247
0.78854 0.796811 0.248905
0.837324 0.805585 0.246159
0.877379 0.804059 0.23949
0.917601 0.794247 0.24535
0.952758 0.7823 0.259113
0.982971 0.767849 0.286305
0.996002 0.753353 0.324849
0.999451 0.739254 0.374899
0.999786 0.725292 0.431098
0.999863 0.713848 0.48632
0.999924 0.711269 0.537346
0.999908 0.722484 0.594446
0.999863 0.752468 0.668818
0.999847 0.794003 0.74757
0.999908 0.876173 0.859083
0 0.630854 0.438529
0 0.63534 0.431662
0 0.640757 0.425254
0 0.645853 0.418891
0 0.650538 0.41268
0 0.656138 0.406806
0 0.662913 0.398978
0 0.67129 0.389425
0 0.683528 0.37438
0 0.698589 0.354467
0 0.718288 0.321752
0 0.740032 0.277211
0.0196231 0.759747 0.217838
0.173709 0.771115 0.169482
0.356451 0.783169 0.146304
0.540185 0.778424 0.220142
0.67483 0.782254 0.289097
0.769299 0.796323 0.312383
0.797635 0.824979 0.307042
0.833585 0.843 0.307866
0.874281 0.850599 0.309773
0.905119 0.848737 0.303395
0.934127 0.841489 0.309926
0.960967 0.831403 0.328115
0.984955 0.817823 0.361593
0.995438 0.803708 0.407233
0.999069 0.789578 0.461509
0.999802 0.775708 0.515648
0.999985 0.764797 0.567941
0.999863 0.765072 0.620768
0.999908 0.78613 0.68716
0.999741 0.817945 0.761852
0.999878 0.890639 0.868177
0 0.68249 0.496605
0 0.686625 0.491508
0 0.691661 0.486503
0 0.696452 0.481346
0 0.701274 0.476448
0 0.705776 0.471977
0 0.71162 0.466163
0 0.719799 0.457771
0 0.729824 0.447379
0 0.74345 0.431098
0 0.760143 0.408942
0 0.781094 0.373999
0 0.802609 0.328664
0.050309 0.819318 0.273625
0.231617 0.825483 0.234577
0.414816 0.834272 0.221897
0.59881 0.828122 0.291798
0.729473 0.831128 0.354971
0.817853 0.843656 0.376425
0.843503 0.86894 0.373297
0.872419 0.88452 0.376684
0.903639 0.890776 0.380911
0.926024 0.888991 0.376623
0.946029 0.883696 0.387121
0.964034 0.875837 0.410513
0.981582 0.863966 0.449577
0.991547 0.851041 0.497841
0.998077 0.83714 0.550896
0.999832 0.823896 0.601572
0.999939 0.815396 0.653147
0.999802 0.82324 0.712322
0.999802 0.848356 0.780346
0.999847 0.907622 0.880995
0 0.735698 0.55816
0 0.739818 0.554788
0 0.744167 0.551537
0 0.748714 0.547616
0 0.753216 0.54406
0 0.757321 0.540444
0 0.762371 0.536431
0 0.769329 0.531182
0 0.778408 0.52256
0 0.789578 0.511955
0 0.803845 0.495781
0 0.821118 0.473579
0 0.841382 0.438926
0.00578317 0.860761 0.393622
0.0893721 0.87425 0.343496
0.282338 0.876661 0.312856
0.466026 0.881346 0.307225
0.643259 0.87512 0.364889
0.772747 0.875547 0.429007
0.858061 0.885801 0.453559
0.884077 0.906538 0.454032
0.905043 0.919905 0.458961
0.926802 0.924285 0.462638
0.943084 0.923476 0.464286
0.955108 0.920027 0.479515
0.965331 0.914321 0.506874
0.978363 0.904967 0.546319
0.987945 0.89366 0.591653
0.996201 0.881224 0.640406
0.999283 0.869612 0.689448
0.999435 0.866697 0.743114
0.999771 0.880125 0.804776
0.999802 0.929412 0.897215
0 0.790845 0.62388
0 0.794263 0.621759
0 0.798032 0.619776
0 0.802167 0.617472
0 0.806226 0.614969
0 0.809873 0.612772
0 0.814557 0.609949
0 0.820203 0.606271
0 0.827802 0.601785
0 0.837201 0.593591
0 0.848692 0.583703
0 0.86244 0.568719
0 0.878798 0.548516
0 0.89601 0.516945
0.0342412 0.911421 0.47599
0.137514 0.921752 0.431632
0.326955 0.922087 0.404257
0.507408 0.924056 0.401205
0.676555 0.9178 0.447044
0.806409 0.915236 0.511009
0.889494 0.921935 0.540871
0.918715 0.93753 0.546654
0.932723 0.948867 0.55256
0.947433 0.952789 0.558633
0.957076 0.951949 0.562036
0.9635 0.949722 0.581506
0.969055 0.946029 0.608927
0.976883 0.939513 0.644862
0.986068 0.930526 0.684596
0.995041 0.92015 0.729076
0.998993 0.912108 0.77705
0.999481 0.916487 0.834424
0.999878 0.948821 0.914275
0 0.846479 0.693584
0 0.849668 0.692576
0 0.852827 0.691417
0 0.855802 0.690135
0 0.859113 0.688716
0 0.862379 0.687236
0 0.866117 0.685832
0 0.870939 0.683375
0 0.877241 0.680674
0 0.884489 0.676966
0 0.893095 0.669779
0 0.903624 0.661173
0 0.914977 0.648768
0 0.927565 0.631647
0.0108186 0.93933 0.605295
0.0772869 0.949889 0.572045
0.198581 0.95642 0.535943
0.370779 0.956451 0.513207
0.541558 0.956268 0.508644
0.703044 0.951476 0.540139
0.83061 0.948043 0.597116
0.913527 0.950881 0.633951
0.946181 0.961196 0.644572
0.955856 0.97081 0.650736
0.964248 0.973663 0.658946
0.969238 0.973098 0.664775
0.972747 0.971771 0.684581
0.975753 0.969192 0.710231
0.97969 0.965087 0.740551
0.986374 0.958587 0.773602
0.99443 0.950957 0.813062
0.998474 0.952575 0.866056
0.999054 0.970153 0.93344
0 0.899931 0.765377
0 0.902449 0.764889
0 0.904585 0.764324
0 0.906828 0.763973
0 0.908919 0.763272
0 0.911009 0.762493
0 0.913451 0.761746
0 0.916442 0.760266
0 0.920577 0.758999
0 0.925887 0.757137
0 0.931792 0.754437
0 0.938598 0.749279
0 0.946685 0.742504
0 0.954665 0.733043
0 0.962966 0.719554
0.0442969 0.969772 0.699397
0.131029 0.976364 0.674769
0.266041 0.979507 0.647608
0.421088 0.979873 0.630274
0.578256 0.978927 0.624506
0.727382 0.975601 0.64094
0.851087 0.971328 0.686732
0.932555 0.972152 0.726207
0.966613 0.978103 0.740063
0.973159 0.984863 0.746624
0.977462 0.986999 0.754238
0.979797 0.986786 0.761593
0.981552 0.986145 0.780118
0.983185 0.984588 0.801999
0.985443 0.982193 0.826551
0.988647 0.978317 0.853117
0.993469 0.980682 0.898512
0.997681 0.988464 0.952178
0 0.942962 0.83592
0 0.944503 0.835889
0 0.945983 0.835935
0 0.947478 0.835843
0 0.948714 0.835798
0 0.94992 0.835523
0 0.95137 0.835126
0 0.952972 0.834562
0 0.955428 0.833875
0 0.958618 0.833036
0 0.962615 0.83212
0 0.966995 0.830671
0 0.971664 0.826902
0 0.977218 0.822293
0 0.981933 0.815122
0.0209506 0.985718 0.8047
0.0937362 0.988815 0.790417
0.198932 0.991852 0.774227
0.334462 0.993851 0.756252
0.47747 0.994278 0.74226
0.623087 0.99295 0.736263
0.757107 0.990921 0.741619
0.873487 0.987243 0.773373
0.949187 0.986358 0.809461
0.98085 0.988998 0.825223
0.985595 0.993484 0.831281
0.987335 0.994827 0.838849
0.987945 0.99472 0.844678
0.988861 0.994537 0.860319
0.989532 0.993744 0.87689
0.990707 0.992523 0.896117
0.993393 0.994171 0.932097
0.996612 0.996582 0.96994
0 0.974426 0.898787
0 0.975311 0.898833
0 0.976181 0.898878
0 0.977005 0.899001
0 0.977798 0.899153
0 0.978424 0.899199
0 0.979141 0.899138
0 0.979995 0.898878
0 0.981079 0.898497
