ocio/luts/AIB3_Apart_Log3_P3-D65-ST2084-1000nits_x33.cube
TITLE "Generated by Resolve"
LUT_3D_SIZE 5
0.00178531 0.0080415 0.0145418
0.17998 0.0716106 0.0437018
0.486351 0.231998 0.158999
0.611002 0.371649 0.322637
0.591501 0.551736 0.553094
0.0710613 0.150103 0.0838331
0.209918 0.220157 0.093019
0.491981 0.285725 0.173907
0.611612 0.386618 0.321187
0.591318 0.552285 0.553185
0.278676 0.422507 0.302388
0.302449 0.452903 0.253407
0.523537 0.515618 0.302327
0.606836 0.481697 0.349493
0.590768 0.556695 0.555154
0.402213 0.562081 0.517311
0.409369 0.569711 0.512489
0.438254 0.591211 0.467369
0.585519 0.588418 0.503395
0.587182 0.581491 0.57258
0.447578 0.589883 0.591287
0.448951 0.589853 0.591272
0.465888 0.589502 0.590875
0.565316 0.58674 0.587198
0.585657 0.585733 0.585763
0.0344091 0.0882734 0.161791
0.153536 0.0906386 0.20557
0.493736 0.232929 0.190311
0.610254 0.370367 0.339269
0.591455 0.551736 0.553567
0.0946059 0.183841 0.224018
0.16556 0.190326 0.204959
0.503426 0.265568 0.182559
0.611307 0.383383 0.335683
0.591287 0.552254 0.553658
0.280415 0.424704 0.329366
0.30074 0.450996 0.285115
0.520851 0.512322 0.313283
0.606973 0.47924 0.357916
0.590723 0.556649 0.555596
0.402045 0.561807 0.518898
0.409201 0.569451 0.514244
0.43743 0.591196 0.470008
0.585473 0.588312 0.504723
0.587182 0.58146 0.572717
0.447532 0.589883 0.591302
0.44889 0.589868 0.591272
0.465782 0.589502 0.59089
0.565301 0.58674 0.587213
0.585657 0.585733 0.585779
0.202594 0.34258 0.452796
0.195315 0.334936 0.458473
0.479698 0.327092 0.477089
0.595865 0.381277 0.450736
0.591089 0.551736 0.556756
0.209674 0.351568 0.456352
0.207218 0.344991 0.461433
0.481971 0.338094 0.477668
0.599237 0.390799 0.448554
0.590921 0.552254 0.556832
0.327169 0.478874 0.501274
0.333318 0.484779 0.498848
0.48986 0.490669 0.480171
0.606226 0.460533 0.432074
0.590524 0.55642 0.558465
0.402106 0.56051 0.533333
0.408911 0.568322 0.530419
0.435966 0.590402 0.498451
0.585046 0.587213 0.518868
0.587137 0.581277 0.573953
0.447089 0.589853 0.591272
0.448356 0.589868 0.591287
0.464988 0.589517 0.59089
0.565118 0.58674 0.587213
0.585657 0.585733 0.585779
0.385336 0.532174 0.597314
0.389136 0.531487 0.597543
0.428901 0.526314 0.597253
0.586206 0.509819 0.582055
0.588357 0.555749 0.580911
0.385672 0.53283 0.597253
0.389487 0.532128 0.597467
0.429145 0.527001 0.597208
0.586206 0.510658 0.58201
0.588312 0.556191 0.580957
0.391257 0.53846 0.596597
0.392966 0.538125 0.596933
0.430457 0.533257 0.596902
0.585946 0.517998 0.58172
0.587915 0.55964 0.581399
0.424659 0.579599 0.587945
0.426764 0.581476 0.588479
0.433371 0.587243 0.5897
0.578531 0.581262 0.581674
0.586206 0.580652 0.584237
0.442054 0.589929 0.591394
0.443641 0.589899 0.591348
0.458122 0.589548 0.590936
0.5635 0.586831 0.587335
0.585657 0.585733 0.585779
0.574746 0.586313 0.586587
0.574899 0.586297 0.586587
0.576028 0.586267 0.586526
0.583291 0.585855 0.585931
0.585672 0.585657 0.585794
0.574746 0.586313 0.586587
0.574899 0.586297 0.586587
0.576043 0.586267 0.586526
0.583307 0.585855 0.585931
0.585672 0.585657 0.585794
0.574777 0.586313 0.586603
0.574929 0.586297 0.586587
0.576059 0.586267 0.586526
0.583322 0.58584 0.585916
0.585672 0.585657 0.585794
0.574792 0.586313 0.586587
0.574945 0.586297 0.586587
0.57615 0.586267 0.586526
0.583551 0.58584 0.585885
0.585672 0.585657 0.585794
0.522988 0.58822 0.589227
0.524239 0.588205 0.589197
0.532753 0.587869 0.588769
0.576349 0.586297 0.586557
0.585657 0.585733 0.585779
