ocio/luts/AIB3_Apart_Log3_Rec709-D65-BT1886_x33.cube
TITLE "Generated by Resolve"
LUT_3D_SIZE 5
0 0 0.00318914
0.134157 0.0267033 0.00895705
0.59707 0.0590524 0
0.991547 0.268391 0.238132
0.999847 0.825513 0.834501
0 0.0995499 0.0393835
0.143984 0.154894 0.0106508
0.611719 0.181918 0
0.993149 0.305852 0.230121
1 0.828183 0.835782
0 0.442527 0.230854
0 0.502968 0.113359
0.681987 0.650904 0.0988785
0.991852 0.552621 0.260441
0.999908 0.847898 0.845197
0 0.846479 0.693584
0 0.877241 0.680674
0.198581 0.95642 0.535943
0.964248 0.973663 0.658946
0.999054 0.970153 0.93344
0.260563 0.998993 0.998993
0.278523 0.998825 0.998825
0.396185 0.999573 0.999573
0.893523 0.999664 0.999664
0.999527 0.999527 0.998978
0 0.0495155 0.111177
0.10724 0.0452125 0.149432
0.615946 0.0385138 0.0871595
0.990524 0.266545 0.272496
0.999847 0.825666 0.836408
0 0.126452 0.16466
0.100252 0.127459 0.140734
0.641428 0.129473 0.0534524
0.993347 0.299016 0.261906
1 0.828183 0.837568
0 0.447272 0.276402
0 0.498985 0.18349
0.67335 0.641627 0.153429
0.993332 0.546349 0.282185
0.999908 0.847883 0.846937
0 0.845792 0.698741
0 0.876738 0.686564
0.191684 0.95729 0.54406
0.964508 0.973739 0.664469
0.99913 0.970077 0.934081
0.259632 0.998993 0.998993
0.277638 0.998825 0.998825
0.395529 0.999557 0.999557
0.8934 0.999664 0.999664
0.999527 0.999527 0.998978
0 0.308141 0.501961
0.0280919 0.294545 0.512383
0.586175 0.258976 0.558663
0.949004 0.314382 0.504295
1 0.827146 0.849592
0 0.321859 0.509789
0.0356298 0.309239 0.518486
0.590051 0.277501 0.558694
0.96202 0.334569 0.498894
0.999802 0.829465 0.850278
0 0.57644 0.629511
0 0.590188 0.622156
0.595605 0.597711 0.570321
0.999435 0.503334 0.457252
0.999924 0.848127 0.858518
0 0.8448 0.74789
0 0.876829 0.741146
0.153521 0.962798 0.633906
0.966827 0.974212 0.714977
0.999786 0.969589 0.939391
0.252293 0.998993 0.998993
0.270695 0.998764 0.998764
0.390433 0.999496 0.999496
0.89247 0.999664 0.999664
0.999527 0.999527 0.999023
0.177432 0.749691 0.976486
0.20383 0.747021 0.976761
0.392844 0.728313 0.973175
0.974334 0.676448 0.933684
0.999863 0.852613 0.953902
0.176959 0.752041 0.976623
0.203281 0.749233 0.976776
0.392767 0.730663 0.973693
0.974517 0.679362 0.933913
0.999817 0.854582 0.954406
0.171618 0.772045 0.977234
0.196551 0.770535 0.978058
0.386923 0.753109 0.977035
0.976028 0.705715 0.936538
0.999939 0.869978 0.958618
0 0.949981 0.978119
0 0.959274 0.98204
0.0255589 0.987991 0.99263
0.958816 0.971145 0.972351
0.999893 0.971191 0.986801
0.180438 1 1
0.202869 0.999664 0.999664
0.344472 0.999161 0.999161
0.88452 0.999603 0.999603
1 1 1
0.941833 0.999725 0.999725
0.942519 0.99968 0.99968
0.947951 0.999542 0.999542
0.986313 0.999496 0.999496
0.999863 0.998825 0.999863
0.941848 0.999725 0.999725
0.942535 0.99968 0.99968
0.947967 0.999527 0.999527
0.986328 0.999496 0.999496
0.999863 0.998825 0.999863
0.941985 0.999725 0.999725
0.942672 0.99968 0.99968
0.948119 0.999527 0.999527
0.986465 0.999496 0.999496
0.999863 0.998856 0.999863
0.942077 0.99971 0.99971
0.942824 0.999664 0.999664
0.94873 0.999542 0.999542
0.987457 0.999527 0.999527
0.999863 0.998856 0.999863
0.689326 0.999573 0.999573
0.695155 0.999588 0.999588
0.735912 0.999603 0.999603
0.950118 0.999527 0.999527
1 1 1
