ocio/luts/AIB3_Apart_Log3_P3-D65-ST2084-1000nits_x33.cube
TITLE "Generated by Resolve"
LUT_3D_SIZE 33
0.00178531 0.0080415 0.0145418
0.00421149 0.00759899 0.0146029
0.0144045 0.0174868 0.0237125
0.027039 0.0439155 0.0532387
0.0446174 0.0479438 0.0509651
0.0636912 0.0489204 0.0471046
0.0939956 0.0520027 0.0438544
0.13225 0.0591135 0.0416876
0.17998 0.0716106 0.0437018
0.232303 0.0883497 0.0508888
0.281102 0.108629 0.0644999
0.325261 0.131075 0.0819104
0.365743 0.153903 0.100465
0.402457 0.176104 0.117952
0.433692 0.196078 0.132952
0.461158 0.214832 0.146517
0.486351 0.231998 0.158999
0.510277 0.248264 0.171847
0.533059 0.264714 0.184817
0.554589 0.281483 0.199008
0.57406 0.297963 0.214343
0.589899 0.314672 0.232959
0.600488 0.331533 0.257404
0.607477 0.350545 0.288945
0.611002 0.371649 0.322637
0.611505 0.394583 0.354131
0.610208 0.417182 0.383215
0.608225 0.438834 0.410315
0.605966 0.459602 0.437491
0.603281 0.480659 0.466087
0.599786 0.504067 0.49633
0.596017 0.52462 0.523262
0.591501 0.551736 0.553094
0 0.0131533 0.0195773
0.00373846 0.017319 0.0189212
0.016083 0.0223392 0.0270848
0.028397 0.0459449 0.0553902
0.0465248 0.0481727 0.0505989
0.0664836 0.0495613 0.0468452
0.0961013 0.0532082 0.0437476
0.134112 0.0606851 0.0420081
0.180743 0.0734569 0.0441444
0.232303 0.0902113 0.0513466
0.280751 0.110414 0.0648356
0.324636 0.132784 0.0820783
0.365255 0.155718 0.100862
0.402136 0.17821 0.118227
0.433799 0.198215 0.133394
0.46154 0.217334 0.147082
0.486976 0.234531 0.15964
0.511421 0.251011 0.172702
0.534234 0.267231 0.185672
0.555596 0.283864 0.199329
0.57467 0.300114 0.213901
0.590219 0.316548 0.232227
0.600793 0.333303 0.256718
0.607797 0.352056 0.288518
0.611124 0.372885 0.322164
0.611536 0.395575 0.353796
0.610056 0.417792 0.38294
0.608301 0.439338 0.41033
0.605951 0.459998 0.437476
0.603265 0.480934 0.466102
0.599802 0.504234 0.496376
0.596002 0.524727 0.523278
0.591485 0.551781 0.553094
0.0116274 0.0322118 0.0391852
0.0127108 0.0335088 0.040528
0.0166323 0.035935 0.04065
0.0307012 0.0462043 0.0547646
0.0489509 0.0489357 0.0502327
0.0693675 0.051194 0.0468147
0.098146 0.0556802 0.0437781
0.13518 0.0634318 0.0423285
0.181399 0.0763561 0.0446937
0.232929 0.0933852 0.0521553
0.281621 0.113817 0.0660105
0.325872 0.136385 0.083238
0.366751 0.159228 0.101976
0.403388 0.181857 0.119448
0.43563 0.20267 0.135058
0.463142 0.221393 0.148165
0.488548 0.238163 0.160937
0.512444 0.25449 0.173754
0.534997 0.270344 0.186709
0.55584 0.286488 0.200015
0.574975 0.3028 0.214679
0.590433 0.319051 0.23267
0.601022 0.335592 0.256901
0.607904 0.35404 0.288457
0.61117 0.374472 0.322042
0.61146 0.396689 0.353628
0.609964 0.41857 0.382803
0.608377 0.439918 0.410391
0.605936 0.460426 0.437476
0.60325 0.481209 0.466117
0.599817 0.504402 0.496422
0.595987 0.524849 0.523308
0.59147 0.551827 0.553094
0.0261997 0.0513161 0.0569619
0.0261387 0.0518044 0.0570535
0.026276 0.0523384 0.0571145
0.0314641 0.0548257 0.0552529
0.0499733 0.0601968 0.05037
0.071519 0.0626535 0.0492409
0.0997177 0.0664836 0.047364
0.13698 0.0733654 0.0459449
0.183352 0.0846418 0.0471351
0.235386 0.10042 0.0545357
0.284016 0.119783 0.0681315
0.328359 0.141512 0.08542
0.369131 0.164721 0.104021
0.405676 0.187549 0.12166
0.437171 0.207584 0.1364
0.464988 0.2262 0.149874
0.489815 0.242527 0.162295
0.5131 0.257664 0.174685
0.535515 0.273152 0.187411
0.556466 0.289219 0.201068
0.575433 0.305394 0.215671
0.590799 0.321447 0.233295
0.601251 0.337835 0.257084
0.607996 0.355993 0.28838
0.611399 0.375998 0.322087
0.611261 0.397681 0.353384
0.609934 0.419425 0.382788
0.608362 0.440558 0.410391
0.605905 0.460868 0.437507
0.60322 0.481514 0.466163
0.599802 0.504601 0.496452
0.595987 0.524956 0.523339
0.591455 0.551888 0.553109
0.0243229 0.0630808 0.0601511
0.0246281 0.0637522 0.0601663
0.0255741 0.0646525 0.0600137
0.0310216 0.0679332 0.057496
0.0485389 0.0767834 0.0493782
0.0748608 0.0822461 0.0500954
0.102663 0.0864881 0.0521248
0.139864 0.0922255 0.052781
0.185306 0.101518 0.0537118
0.237324 0.114519 0.0594034
0.28629 0.131273 0.0717479
0.330755 0.151339 0.0883803
0.371603 0.173083 0.106554
0.407813 0.194827 0.123583
0.438682 0.214557 0.138384
0.465919 0.231022 0.151034
0.490593 0.247089 0.163622
0.513954 0.26186 0.175952
0.536355 0.276036 0.188464
0.55697 0.291936 0.202014
0.575708 0.308019 0.216464
0.590997 0.323873 0.233738
0.601419 0.340108 0.257191
0.608087 0.357946 0.288319
0.611444 0.377569 0.321965
0.611261 0.398856 0.353353
0.609903 0.420279 0.382803
0.608331 0.441154 0.410437
0.60589 0.461311 0.437537
0.603204 0.481819 0.466194
0.599786 0.504799 0.496483
0.595972 0.525078 0.523369
0.59144 0.551949 0.553109
0.0278019 0.0778363 0.0644083
0.0281834 0.0786603 0.0641642
0.0289464 0.0797436 0.063508
0.0322271 0.0825818 0.0601358
0.0473793 0.093492 0.0496681
0.0764935 0.102617 0.0493629
0.108888 0.108934 0.0562905
0.144717 0.115343 0.0586252
0.190478 0.123049 0.0621653
0.240208 0.134646 0.0674601
0.288609 0.149477 0.0781415
0.33312 0.166903 0.0935531
0.373861 0.185611 0.110414
0.409308 0.203983 0.125887
0.439872 0.2215 0.13994
0.466529 0.237781 0.152834
0.491493 0.251789 0.164828
0.514443 0.266377 0.177157
0.536797 0.279881 0.189578
0.557458 0.294606 0.202914
0.576013 0.310536 0.217197
0.591012 0.326101 0.233997
0.601572 0.342367 0.257298
0.608148 0.359686 0.288243
0.611231 0.378882 0.321599
0.611414 0.399969 0.353445
0.609873 0.421134 0.382803
0.608301 0.441764 0.410498
0.605859 0.461738 0.437613
0.603189 0.482139 0.466239
0.599771 0.504997 0.496513
0.595956 0.5252 0.5234
0.591424 0.551995 0.553124
0.035523 0.0957504 0.0696422
0.0361028 0.0966812 0.0690471
0.0373236 0.0979477 0.0679637
0.0398566 0.100679 0.06421
0.0513466 0.112718 0.0527657
0.0727092 0.123507 0.0477607
0.114275 0.13193 0.0596323
0.15053 0.141878 0.0642557
0.197024 0.149371 0.0697948
0.246616 0.159442 0.0772717
0.29279 0.173114 0.0875257
0.336126 0.188846 0.101152
0.375448 0.204425 0.115587
0.410391 0.21886 0.129824
0.440604 0.23299 0.14255
0.467247 0.24567 0.154711
0.491569 0.258991 0.166552
0.514702 0.271641 0.178515
0.536889 0.28481 0.190829
0.557931 0.298131 0.203937
0.576425 0.313344 0.218112
0.591348 0.328878 0.234668
0.601678 0.344778 0.257374
0.608225 0.361913 0.288121
0.611292 0.380804 0.321462
0.611399 0.401404 0.353384
0.609842 0.422171 0.382803
0.60827 0.442512 0.410559
0.605829 0.462242 0.43769
0.603159 0.48249 0.4663
0.599756 0.505241 0.496559
0.595941 0.525368 0.523445
0.591394 0.552071 0.55314
0.0524453 0.12015 0.0763561
0.0527352 0.120485 0.0755322
0.0531319 0.12163 0.0734722
0.0544442 0.123812 0.0694285
0.0619516 0.136217 0.059266
0.0763409 0.14931 0.0537575
0.110475 0.158282 0.0590982
0.158206 0.171176 0.0729992
0.202884 0.182986 0.0789197
0.255344 0.191882 0.0885634
0.30106 0.203891 0.0996109
0.341527 0.217182 0.111513
0.378225 0.229725 0.123354
0.411887 0.241047 0.13576
0.441398 0.250385 0.147112
0.467689 0.259968 0.158343
0.491722 0.269154 0.169146
0.514717 0.280095 0.180484
0.536919 0.291737 0.192706
0.557961 0.304433 0.205325
0.576974 0.317632 0.219287
0.591623 0.332708 0.235431
0.601938 0.348394 0.257572
0.608362 0.365026 0.288014
0.611536 0.383261 0.321447
0.611368 0.403296 0.353277
0.609842 0.423545 0.382864
0.608225 0.443488 0.410636
0.605783 0.462928 0.437812
0.603113 0.482948 0.466407
0.599725 0.505562 0.496635
0.595926 0.525567 0.523507
0.591363 0.552163 0.553155
0.0710613 0.150103 0.0838331
0.0715953 0.150698 0.0829328
0.0726329 0.151568 0.0810864
0.0738689 0.154147 0.0775616
0.0816205 0.165667 0.0699168
0.0911269 0.179828 0.0667277
0.110628 0.193271 0.0694133
0.159335 0.202228 0.079408
0.209918 0.220157 0.093019
0.260014 0.23331 0.102388
0.30988 0.241154 0.113375
0.350286 0.250462 0.124468
0.384817 0.259876 0.134966
0.416068 0.268177 0.145205
0.444129 0.275456 0.155474
0.469032 0.280522 0.164477
0.491981 0.285725 0.173907
0.514824 0.292836 0.184146
0.536645 0.301625 0.195483
0.557565 0.312444 0.207599
0.57673 0.324773 0.221042
0.591913 0.337377 0.236378
0.602426 0.353033 0.258015
0.608743 0.36907 0.288029
0.611612 0.386618 0.321187
0.611337 0.405814 0.353155
0.609903 0.42533 0.383017
0.608179 0.4448 0.410742
0.605798 0.463798 0.438041
0.603067 0.483558 0.466529
0.59968 0.505943 0.496742
0.595895 0.525841 0.523568
0.591318 0.552285 0.553185
0.0959182 0.184665 0.0945907
0.0966964 0.186389 0.0941939
0.0970474 0.186847 0.0926223
0.0981308 0.189563 0.0893568
0.102815 0.199557 0.085008
0.113802 0.215137 0.0833295
0.126207 0.229923 0.0868696
0.157977 0.242451 0.0946059
0.219699 0.251896 0.106584
0.265507 0.272114 0.119646
0.312535 0.282719 0.129641
0.358343 0.287404 0.140017
0.394491 0.293675 0.149783
0.424231 0.29929 0.15874
0.450141 0.304417 0.167483
0.472892 0.307652 0.17528
0.494347 0.309407 0.182559
0.51487 0.311818 0.190295
0.536324 0.316594 0.199954
0.557046 0.323644 0.211109
0.575952 0.334295 0.22359
0.59202 0.345937 0.238544
0.60264 0.358968 0.258183
0.608759 0.374197 0.287587
0.61146 0.390799 0.320623
0.611231 0.40882 0.352926
0.609812 0.427771 0.383032
0.608103 0.44654 0.410895
0.605814 0.464973 0.438346
0.602991 0.484367 0.466712
0.599634 0.506462 0.49688
0.595865 0.526177 0.523674
0.591287 0.552453 0.553262
0.119432 0.224353 0.109957
0.121279 0.226444 0.109651
0.122148 0.227268 0.107912
0.123995 0.22974 0.105196
0.129671 0.237232 0.102831
0.138674 0.252522 0.102663
0.149294 0.268299 0.108049
0.166735 0.281346 0.115648
0.217655 0.289815 0.122927
0.279622 0.299702 0.135775
0.31577 0.319707 0.148058
0.359533 0.328298 0.15816
0.402899 0.330236 0.167407
0.434455 0.333196 0.175753
0.459419 0.33611 0.182971
0.480522 0.337819 0.189868
0.499443 0.338399 0.195636
0.518135 0.338094 0.201785
0.536355 0.337865 0.208209
0.556481 0.340871 0.216983
0.575326 0.346975 0.227817
0.591485 0.357092 0.241932
0.602625 0.367971 0.260456
0.609293 0.38114 0.287541
0.611734 0.396506 0.320485
0.61117 0.413199 0.352728
0.609445 0.430732 0.382803
0.60795 0.448569 0.411063
0.605707 0.466575 0.438605
0.602899 0.485451 0.466941
0.599557 0.507149 0.497047
0.595819 0.526604 0.523812
0.591257 0.552621 0.553353
0.148974 0.267292 0.13431
0.150271 0.269047 0.133379
0.150805 0.269917 0.131456
0.151904 0.271412 0.129213
0.155581 0.276112 0.126452
0.165713 0.288533 0.125399
0.178607 0.303288 0.130083
0.189944 0.316869 0.137346
0.218082 0.325902 0.143633
0.277806 0.332219 0.151751
0.330846 0.344808 0.165881
0.362005 0.363424 0.178546
0.402152 0.370428 0.187884
0.441825 0.369146 0.194949
0.469215 0.36939 0.200916
0.489967 0.36968 0.207111
0.50753 0.369436 0.212329
0.524178 0.368597 0.217319
0.539879 0.366049 0.221546
0.556466 0.364172 0.2271
0.574853 0.365896 0.235233
0.5906 0.371389 0.246845
0.601953 0.380179 0.26479
0.609033 0.390784 0.289189
0.61178 0.403723 0.319951
0.611261 0.41886 0.352651
0.609476 0.434897 0.383017
0.607752 0.451591 0.411292
0.605554 0.468696 0.438972
0.602777 0.486885 0.467247
0.599466 0.508064 0.497292
0.595758 0.527184 0.523995
0.591241 0.55288 0.553506
0.180774 0.307408 0.162631
0.182269 0.309056 0.16144
0.183444 0.31014 0.158831
0.184665 0.311498 0.156054
0.187732 0.314412 0.152819
0.193698 0.32134 0.149966
0.201785 0.334112 0.150393
0.213672 0.347936 0.156909
0.229816 0.358724 0.164218
0.27248 0.364843 0.170535
0.332174 0.371756 0.181277
0.375235 0.385809 0.195224
0.403449 0.402808 0.206867
0.439628 0.407874 0.215045
0.475471 0.404868 0.22153
0.49897 0.403143 0.226246
0.517082 0.401679 0.231144
0.531975 0.399573 0.233997
0.546166 0.397375 0.238239
0.56025 0.393561 0.24152
0.574685 0.390341 0.24654
0.589883 0.391196 0.255619
0.601282 0.395941 0.270298
0.608438 0.403555 0.2934
0.611414 0.413443 0.32134
0.611048 0.426001 0.352239
0.609216 0.440131 0.383017
0.607553 0.455604 0.411673
0.605142 0.471244 0.439139
0.602747 0.488685 0.467781
0.599344 0.50927 0.497597
0.595666 0.527947 0.524239
0.591241 0.553262 0.553719
0.211002 0.342092 0.195895
0.212665 0.344167 0.193286
0.213962 0.34583 0.190143
0.215045 0.347097 0.186709
0.21622 0.34931 0.182666
0.219547 0.353918 0.178958
0.226368 0.362493 0.176257
0.237537 0.374716 0.177096
0.250782 0.386999 0.183291
0.27364 0.395331 0.189731
0.325505 0.400427 0.197879
0.380697 0.408469 0.212161
0.414237 0.423941 0.224979
0.440909 0.438193 0.234485
0.472007 0.44155 0.240665
0.5037 0.437049 0.245167
0.524407 0.433768 0.249378
0.539773 0.430961 0.252598
0.553246 0.428168 0.255283
0.565835 0.424506 0.258122
0.577493 0.419852 0.261418
0.589227 0.415702 0.267292
0.600366 0.415763 0.279393
0.607599 0.41973 0.298466
0.610788 0.426108 0.32546
0.610574 0.435401 0.353948
0.609018 0.447288 0.383185
0.607309 0.460639 0.412207
0.605051 0.474891 0.439796
0.602335 0.490974 0.468132
0.598993 0.510689 0.497841
0.595743 0.528908 0.524758
0.591165 0.553796 0.553948
0.23566 0.371832 0.231556
0.23769 0.374548 0.228794
0.239322 0.376867 0.225147
0.240803 0.37882 0.221042
0.242161 0.38114 0.215839
0.24448 0.383978 0.210529
0.249653 0.389425 0.204929
0.25893 0.399481 0.201038
0.27068 0.411688 0.202945
0.284718 0.422034 0.208286
0.319585 0.42826 0.215198
0.375219 0.43331 0.227207
0.423453 0.442176 0.242466
0.448386 0.457832 0.252461
0.473899 0.469093 0.259846
0.500114 0.470634 0.263905
0.527413 0.464958 0.266789
0.545357 0.461173 0.271092
0.559228 0.457435 0.273121
0.570779 0.453941 0.274586
0.581796 0.449409 0.277378
0.590997 0.444327 0.281544
0.599374 0.439933 0.291066
0.606149 0.439017 0.30724
0.609934 0.442313 0.330556
0.610025 0.447578 0.358175
0.608576 0.456184 0.385229
0.607019 0.467277 0.412955
0.604837 0.479667 0.440742
0.602045 0.494255 0.468849
0.598886 0.512657 0.498512
0.59556 0.530205 0.525139
0.591058 0.554498 0.554238
0.258579 0.398398 0.267124
0.260792 0.401266 0.264057
0.262333 0.403861 0.260105
0.263951 0.406653 0.255558
0.266361 0.409613 0.250278
0.268406 0.412146 0.244877
0.271977 0.415793 0.238346
0.277699 0.422309 0.23006
0.28574 0.433219 0.224994
0.296681 0.444739 0.226902
0.319615 0.453101 0.231876
0.366476 0.45745 0.240452
0.419974 0.462684 0.256107
0.459266 0.472053 0.270665
0.477852 0.486458 0.276967
0.501106 0.494377 0.281605
0.523278 0.495048 0.284672
0.546685 0.489464 0.287724
0.562554 0.485191 0.291005
0.574914 0.481117 0.292042
0.585214 0.477028 0.293797
0.593439 0.472145 0.297246
0.599878 0.466712 0.304265
0.604639 0.461967 0.318471
0.608377 0.460502 0.338888
0.60911 0.463172 0.363287
0.607935 0.467582 0.389807
0.606317 0.475547 0.41532
0.604227 0.485649 0.441688
0.601862 0.498497 0.469993
0.598611 0.515435 0.49926
0.595163 0.531792 0.525505
0.590936 0.555444 0.554635
0.278676 0.422507 0.302388
0.280644 0.425055 0.298512
0.282383 0.427924 0.294347
0.284749 0.431205 0.289555
0.286519 0.434089 0.284398
0.288609 0.437018 0.279454
0.292042 0.440574 0.273213
0.296529 0.445396 0.264378
0.302449 0.452903 0.253407
0.30988 0.463615 0.246815
0.323461 0.474067 0.248753
0.357839 0.480262 0.254383
0.410346 0.482948 0.265705
0.457389 0.487953 0.28423
0.487633 0.497444 0.295583
0.502708 0.50988 0.299336
0.523537 0.515618 0.302327
0.542046 0.515373 0.304341
0.561379 0.510201 0.306844
0.575662 0.505623 0.30959
0.586465 0.501381 0.309957
0.594873 0.496956 0.312901
0.600732 0.492226 0.318639
0.604303 0.486732 0.330175
0.606836 0.481697 0.349493
0.60798 0.47985 0.371939
0.607111 0.482139 0.395743
0.605264 0.486 0.420218
0.603449 0.493172 0.444617
0.601205 0.503822 0.471092
0.59823 0.519066 0.500237
0.594919 0.534127 0.526284
0.590768 0.556695 0.555154
0.296864 0.44448 0.336309
0.298863 0.447044 0.332265
0.300893 0.449882 0.327352
0.302831 0.452873 0.322438
0.304799 0.455787 0.318364
0.306813 0.458701 0.313588
0.30985 0.462348 0.308324
0.31397 0.467155 0.300237
0.319371 0.473106 0.288914
0.324636 0.480919 0.274922
0.333318 0.490837 0.266835
0.351781 0.499916 0.268772
0.395743 0.503349 0.275074
0.447837 0.504982 0.292027
0.488121 0.509682 0.310506
0.510155 0.519127 0.318379
0.523384 0.528847 0.320775
0.541924 0.533364 0.323201
0.55639 0.532525 0.323095
0.572305 0.527993 0.325612
0.584863 0.523522 0.32784
0.594278 0.519295 0.328969
0.600687 0.514931 0.334524
0.604059 0.50985 0.343923
0.605783 0.504189 0.360388
0.606088 0.499413 0.382437
0.605447 0.497383 0.404562
0.604135 0.499275 0.426551
0.602594 0.502922 0.449683
0.600687 0.51075 0.473869
0.597681 0.523476 0.501457
0.594781 0.537133 0.527459
0.590539 0.558328 0.55584
0.313985 0.464942 0.36788
0.316213 0.467643 0.363394
0.317937 0.470344 0.358923
0.319677 0.472648 0.354788
0.321584 0.475517 0.350896
0.323568 0.478218 0.347173
0.32636 0.481575 0.342351
0.329427 0.485695 0.335576
0.334646 0.491402 0.325383
0.340383 0.498238 0.312047
0.345739 0.506279 0.296208
0.355383 0.514427 0.286534
0.381476 0.521828 0.287358
0.431235 0.523156 0.297292
0.478752 0.52372 0.319265
0.512734 0.528054 0.335439
0.528252 0.536934 0.340078
0.5402 0.544274 0.341634
0.555261 0.547463 0.343221
0.567422 0.546761 0.342626
0.57998 0.543008 0.344289
0.590631 0.539055 0.346838
0.598795 0.534798 0.35082
0.602808 0.530236 0.359854
0.60415 0.525185 0.373358
0.604059 0.519936 0.393103
0.603723 0.515373 0.415381
0.602792 0.513359 0.435966
0.601205 0.514778 0.456092
0.599649 0.519097 0.47863
0.597223 0.529198 0.504112
0.594385 0.541131 0.528618
0.59028 0.560449 0.556786
0.330983 0.484672 0.396429
0.332891 0.486748 0.392325
0.334722 0.48896 0.388876
0.336187 0.491234 0.385397
0.337728 0.493584 0.382345
0.339422 0.495995 0.379095
0.341009 0.498558 0.375219
0.344121 0.502525 0.369314
0.348745 0.507469 0.361776
0.354086 0.513741 0.34992
0.360128 0.520958 0.334752
0.365911 0.528679 0.317678
0.376974 0.534966 0.306935
0.410285 0.540627 0.306172
0.461128 0.53959 0.321599
0.503624 0.539803 0.346151
0.53257 0.543389 0.359274
0.54284 0.551675 0.361212
0.553429 0.557321 0.363439
0.565545 0.559228 0.364096
0.575341 0.558709 0.363272
0.584833 0.555871 0.365087
0.592615 0.552499 0.368277
0.599435 0.548074 0.376089
0.601923 0.543603 0.388815
0.60238 0.538842 0.406424
0.601495 0.533822 0.426566
0.60087 0.529244 0.44683
0.599832 0.527382 0.464698
0.598428 0.529763 0.484779
0.596201 0.536049 0.508003
0.593729 0.545602 0.530816
0.589914 0.563058 0.557977
0.346548 0.502739 0.423301
0.348669 0.504417 0.420584
0.350545 0.506477 0.417731
0.352102 0.508507 0.415
0.353689 0.510323 0.412604
0.355413 0.512184 0.410071
0.356664 0.514504 0.406638
0.35845 0.517601 0.402457
0.361837 0.52192 0.396414
0.366171 0.527123 0.387671
0.372381 0.533837 0.374899
0.378531 0.541054 0.358511
0.383581 0.547738 0.340307
0.398108 0.5523 0.329473
0.435966 0.555856 0.328374
0.48542 0.553597 0.34873
0.523033 0.553445 0.373266
0.547921 0.556405 0.383856
0.555215 0.563577 0.384482
0.563851 0.567697 0.386801
0.573495 0.56936 0.388586
0.580484 0.568734 0.386877
0.586923 0.566751 0.389105
0.592782 0.563821 0.394491
0.597742 0.559808 0.405615
0.599435 0.5552 0.420752
0.599573 0.550454 0.439124
0.599054 0.545739 0.457832
0.598169 0.541756 0.475364
0.597009 0.540658 0.492805
0.595163 0.544732 0.513161
0.593027 0.551369 0.534264
0.589364 0.566049 0.559731
0.360861 0.519341 0.448631
0.362539 0.520882 0.446921
0.364294 0.522576 0.445014
0.366217 0.5243 0.442863
0.367926 0.525963 0.440879
0.369543 0.527504 0.439124
0.371283 0.529183 0.436805
0.373175 0.531899 0.433371
0.375387 0.535241 0.429419
0.3785 0.539345 0.423087
0.382574 0.544778 0.414664
0.388891 0.551202 0.400946
0.395315 0.558114 0.384314
0.400732 0.563714 0.366217
0.417762 0.566674 0.356176
0.456733 0.56846 0.35465
0.503731 0.565682 0.377386
0.537041 0.56463 0.401144
0.558877 0.566766 0.410285
0.565347 0.572793 0.411124
0.571466 0.575998 0.413291
0.578607 0.577218 0.415167
0.583688 0.57673 0.414115
0.587686 0.57528 0.417227
0.591363 0.572824 0.424659
0.594522 0.569177 0.437522
0.595926 0.564935 0.45304
0.596445 0.560357 0.469856
0.596414 0.556298 0.486671
0.595392 0.552941 0.502464
0.594049 0.553582 0.52015
0.592142 0.558358 0.538384
0.58912 0.569543 0.562341
0.375204 0.534722 0.472786
0.37641 0.535973 0.47158
0.377783 0.537285 0.470573
0.379278 0.538766 0.469108
0.380713 0.5402 0.46772
0.382086 0.541558 0.466392
0.383505 0.543191 0.464881
0.385565 0.544945 0.462989
0.388449 0.547753 0.45977
0.391852 0.551186 0.45597
0.394934 0.555138 0.449866
0.398093 0.560327 0.441672
0.403204 0.565957 0.429175
0.409049 0.571954 0.413703
0.416464 0.576455 0.396674
0.436118 0.578027 0.387198
0.473671 0.578714 0.386404
0.51664 0.575662 0.407095
0.547356 0.573663 0.430198
0.567086 0.574884 0.438972
0.573175 0.579416 0.440101
0.577264 0.582055 0.442069
0.581979 0.582818 0.443458
0.585351 0.582437 0.444068
0.587564 0.581262 0.448646
0.58938 0.5794 0.457206
0.591546 0.576349 0.469596
0.592767 0.572763 0.483436
0.593576 0.568704 0.497948
0.593484 0.565164 0.512459
0.59266 0.563256 0.527871
0.590997 0.564965 0.544015
0.588373 0.573877 0.565591
0.388983 0.549249 0.495903
0.389685 0.550072 0.494926
0.39057 0.55108 0.494163
0.391653 0.552239 0.493324
0.392935 0.553323 0.492638
0.39408 0.554391 0.491798
0.395438 0.555673 0.490791
0.397177 0.557305 0.489509
0.399252 0.55935 0.487984
0.40174 0.561685 0.485039
0.405051 0.564874 0.481437
0.408316 0.568612 0.476493
0.411704 0.572808 0.469245
0.415366 0.57763 0.458793
0.419684 0.582193 0.445441
0.428153 0.585748 0.431373
0.448936 0.586374 0.422583
0.486564 0.586297 0.421805
0.52491 0.583474 0.437537
0.554452 0.580819 0.458595
0.572534 0.58088 0.46862
0.578485 0.583947 0.470359
0.581521 0.585855 0.472206
0.584253 0.586328 0.473991
0.586053 0.586053 0.474937
0.587106 0.585122 0.48072
0.58761 0.583764 0.488518
0.588663 0.581491 0.499229
0.590051 0.578698 0.510842
0.591043 0.575601 0.522942
0.591104 0.572717 0.536065
0.58996 0.572457 0.550942
0.5879 0.577508 0.568795
0.402213 0.562081 0.517311
0.402991 0.562905 0.516884
0.403754 0.563699 0.516472
0.404501 0.564492 0.516045
0.40528 0.565332 0.515511
0.405936 0.566033 0.51487
0.406714 0.566873 0.514092
0.407736 0.568154 0.51339
0.409369 0.569711 0.512489
0.411139 0.571557 0.51136
0.413596 0.573739 0.508919
0.416236 0.576165 0.505821
0.419547 0.578943 0.501976
0.423255 0.582177 0.496391
0.425849 0.585382 0.488579
0.429664 0.588769 0.478737
0.438254 0.591211 0.467369
0.46128 0.591485 0.460166
0.494972 0.590814 0.458717
0.530907 0.58851 0.468681
0.55877 0.585504 0.485908
0.575662 0.584634 0.496559
0.582345 0.586343 0.499626
0.584237 0.588113 0.501366
0.585519 0.588418 0.503395
0.586404 0.588144 0.504814
0.586847 0.587381 0.510628
0.586984 0.586206 0.517571
0.587091 0.584726 0.525597
0.587839 0.582589 0.534401
0.588815 0.580072 0.544503
0.588586 0.579202 0.557565
0.587182 0.581491 0.57258
0.414115 0.573083 0.536492
0.414649 0.573678 0.536324
0.415076 0.574273 0.536187
0.415534 0.574792 0.53608
0.41593 0.575265 0.535882
0.416312 0.575723 0.535668
0.416876 0.576257 0.535424
0.417563 0.576959 0.535073
0.418341 0.577905 0.534508
0.419333 0.579126 0.533791
0.420554 0.58053 0.532876
0.422065 0.581872 0.530861
0.423957 0.583764 0.528664
0.426184 0.585641 0.526223
0.428519 0.587854 0.522484
0.431403 0.590127 0.517189
0.436545 0.592111 0.510185
0.44831 0.593561 0.502647
0.471595 0.593515 0.496986
0.503532 0.592889 0.495125
0.535653 0.590921 0.499336
0.561486 0.588083 0.512001
0.577951 0.586831 0.522148
0.584695 0.587442 0.525612
0.585824 0.588678 0.527443
0.586389 0.588922 0.529213
0.586679 0.588693 0.531106
0.586709 0.588129 0.535943
0.586603 0.587304 0.541573
0.586603 0.586282 0.547417
0.586572 0.584955 0.553796
0.586618 0.584436 0.564584
0.586328 0.584772 0.57612
0.423529 0.580941 0.554147
0.423789 0.581292 0.554101
0.424048 0.581628 0.554025
0.424353 0.581949 0.553964
0.424613 0.582193 0.553903
0.424826 0.582452 0.553796
0.425101 0.582757 0.553658
0.425452 0.583169 0.553475
0.42591 0.583703 0.553231
0.42649 0.58439 0.552972
0.427344 0.585214 0.552804
0.428244 0.586191 0.552453
0.428916 0.587228 0.551263
0.429755 0.588495 0.549783
0.430671 0.589593 0.547753
0.431739 0.590784 0.545113
0.434897 0.59202 0.541848
0.442542 0.593164 0.537743
0.458167 0.593774 0.533074
0.482887 0.593637 0.528756
0.512261 0.592844 0.526558
0.54107 0.591485 0.527565
0.56492 0.589181 0.535027
0.579828 0.587777 0.543694
0.585657 0.587808 0.547021
0.586267 0.588312 0.548257
0.586343 0.588342 0.550027
0.586389 0.588144 0.551568
0.586282 0.587793 0.555169
0.586114 0.587274 0.559228
0.586053 0.586679 0.563714
