ocio/luts/AIB3_Apart_Log3_P3-D65-ST2084-1000nits_x33.cube
TITLE "Generated by Resolve"
LUT_3D_SIZE 9
0.00178531 0.0080415 0.0145418
0.0446174 0.0479438 0.0509651
0.17998 0.0716106 0.0437018
0.365743 0.153903 0.100465
0.486351 0.231998 0.158999
0.57406 0.297963 0.214343
0.611002 0.371649 0.322637
0.605966 0.459602 0.437491
0.591501 0.551736 0.553094
0.0243229 0.0630808 0.0601511
0.0485389 0.0767834 0.0493782
0.185306 0.101518 0.0537118
0.371603 0.173083 0.106554
0.490593 0.247089 0.163622
0.575708 0.308019 0.216464
0.611444 0.377569 0.321965
0.60589 0.461311 0.437537
0.59144 0.551949 0.553109
0.0710613 0.150103 0.0838331
0.0816205 0.165667 0.0699168
0.209918 0.220157 0.093019
0.384817 0.259876 0.134966
0.491981 0.285725 0.173907
0.57673 0.324773 0.221042
0.611612 0.386618 0.321187
0.605798 0.463798 0.438041
0.591318 0.552285 0.553185
0.180774 0.307408 0.162631
0.187732 0.314412 0.152819
0.229816 0.358724 0.164218
0.403449 0.402808 0.206867
0.517082 0.401679 0.231144
0.574685 0.390341 0.24654
0.611414 0.413443 0.32134
0.605142 0.471244 0.439139
0.591241 0.553262 0.553719
0.278676 0.422507 0.302388
0.286519 0.434089 0.284398
0.302449 0.452903 0.253407
0.410346 0.482948 0.265705
0.523537 0.515618 0.302327
0.586465 0.501381 0.309957
0.606836 0.481697 0.349493
0.603449 0.493172 0.444617
0.590768 0.556695 0.555154
0.346548 0.502739 0.423301
0.353689 0.510323 0.412604
0.361837 0.52192 0.396414
0.383581 0.547738 0.340307
0.523033 0.553445 0.373266
0.573495 0.56936 0.388586
0.597742 0.559808 0.405615
0.598169 0.541756 0.475364
0.589364 0.566049 0.559731
0.402213 0.562081 0.517311
0.40528 0.565332 0.515511
0.409369 0.569711 0.512489
0.419547 0.578943 0.501976
0.438254 0.591211 0.467369
0.55877 0.585504 0.485908
0.585519 0.588418 0.503395
0.587091 0.584726 0.525597
0.587182 0.581491 0.57258
0.43418 0.589136 0.579019
0.434424 0.589441 0.579004
0.434684 0.589715 0.578988
0.435325 0.590372 0.578866
0.437186 0.591196 0.5776
0.482185 0.590967 0.573343
0.572381 0.588342 0.567971
0.586099 0.586709 0.575845
0.585672 0.58587 0.584527
0.447578 0.589883 0.591287
0.448112 0.589868 0.591287
0.448951 0.589853 0.591272
0.452842 0.589654 0.591058
0.465888 0.589502 0.590875
0.50428 0.588663 0.589807
0.565316 0.58674 0.587198
0.585458 0.585748 0.585794
0.585657 0.585733 0.585763
0.0267491 0.0484169 0.0722972
0.0391394 0.0503395 0.0736858
0.178744 0.0697337 0.0644846
0.371283 0.15375 0.103548
0.490303 0.231647 0.161593
0.574136 0.296986 0.223545
0.610697 0.371099 0.329198
0.605905 0.45951 0.439002
0.591485 0.551736 0.553262
0.0273747 0.0586862 0.0747692
0.0445869 0.0650797 0.0741741
0.173465 0.0844739 0.0599374
0.365972 0.163256 0.103975
0.492607 0.242039 0.163638
0.577661 0.305562 0.221759
0.611307 0.376272 0.32784
0.605829 0.461082 0.438941
0.591424 0.551934 0.553292
0.0654917 0.143999 0.0936446
0.0690013 0.147921 0.0831769
0.197818 0.204105 0.093492
0.37615 0.24622 0.132219
0.495308 0.276753 0.173144
0.579446 0.321675 0.225345
0.61149 0.385306 0.327016
0.605722 0.463584 0.439261
0.591302 0.55227 0.553368
0.180255 0.306966 0.17644
0.184909 0.312261 0.165469
0.222263 0.352209 0.160235
0.397711 0.396765 0.205585
0.513817 0.396307 0.231586
0.57734 0.386236 0.2486
0.611521 0.411887 0.325322
0.605081 0.471031 0.440284
0.591226 0.553246 0.553903
0.279088 0.422812 0.311543
0.2869 0.43386 0.294484
0.301686 0.452018 0.263981
0.404929 0.48275 0.266011
0.522652 0.514458 0.305684
0.58674 0.500114 0.313802
0.60679 0.480873 0.353002
0.603418 0.492927 0.445426
0.590753 0.55668 0.555322
0.346303 0.502724 0.42652
0.353643 0.510338 0.415824
0.361807 0.521691 0.400519
0.383047 0.547784 0.343908
0.521569 0.553597 0.37464
0.573327 0.569177 0.391073
0.598032 0.559487 0.407736
0.598123 0.541619 0.476112
0.589349 0.566033 0.559838
0.402136 0.561975 0.517922
0.405203 0.565209 0.516197
0.409293 0.569604 0.513161
0.419455 0.578882 0.502831
0.43798 0.591196 0.468376
0.55848 0.585534 0.486275
0.585504 0.588373 0.503914
0.587076 0.584695 0.525963
0.587182 0.581476 0.572641
0.43418 0.58912 0.579065
0.434424 0.589426 0.579049
0.434684 0.5897 0.579034
0.435325 0.590356 0.578912
0.437171 0.59118 0.577661
0.482109 0.590967 0.573404
0.572335 0.588342 0.568032
0.586099 0.586709 0.575875
0.585672 0.58587 0.584543
0.447562 0.589883 0.591287
0.448096 0.589883 0.591287
0.44892 0.589853 0.591272
0.452796 0.58967 0.591058
0.465843 0.589502 0.590875
0.50425 0.588663 0.589807
0.565316 0.58674 0.587213
0.585458 0.585748 0.585794
0.585657 0.585733 0.585763
0.0344091 0.0882734 0.161791
0.0391241 0.0852674 0.159167
0.153536 0.0906386 0.20557
0.365972 0.152926 0.19527
0.493736 0.232929 0.190311
0.573632 0.295308 0.240604
0.610254 0.370367 0.339269
0.605814 0.459449 0.440909
0.591455 0.551736 0.553567
0.0356603 0.0947738 0.165347
0.0432441 0.0919203 0.161563
0.160708 0.100252 0.200671
0.37055 0.163622 0.188998
0.498497 0.241321 0.184894
0.577752 0.303853 0.237385
0.61088 0.375494 0.337621
0.605737 0.461021 0.440833
0.591394 0.551934 0.553613
0.0946059 0.183841 0.224018
0.0940414 0.17879 0.214282
0.16556 0.190326 0.204959
0.370001 0.218341 0.178119
0.503426 0.265568 0.182559
0.582284 0.317845 0.234882
0.611307 0.383383 0.335683
0.6056 0.463325 0.44094
0.591287 0.552254 0.553658
0.193957 0.320958 0.257755
0.194797 0.322759 0.248127
0.207233 0.334386 0.207736
0.380194 0.380499 0.235752
0.50956 0.387503 0.244724
0.582132 0.380255 0.254032
0.611521 0.409964 0.333547
0.60499 0.470756 0.44213
0.591196 0.553216 0.554177
0.280415 0.424704 0.329366
0.289143 0.434745 0.31426
0.30074 0.450996 0.285115
0.394446 0.48278 0.268055
0.520851 0.512322 0.313283
0.586938 0.498177 0.320485
0.606973 0.47924 0.357916
0.603372 0.492561 0.446693
0.590723 0.556649 0.555596
0.345998 0.50277 0.431754
0.353597 0.510414 0.421485
0.361852 0.521385 0.407172
0.383444 0.547753 0.351431
0.519417 0.553857 0.376669
0.572992 0.568826 0.394919
0.59826 0.55903 0.411139
0.598047 0.54139 0.477241
0.589334 0.566003 0.559976
0.402045 0.561807 0.518898
0.405066 0.565011 0.517311
0.409201 0.569451 0.514244
0.419287 0.57879 0.504112
0.43743 0.591196 0.470008
0.557977 0.585595 0.486854
0.585473 0.588312 0.504723
0.587076 0.584634 0.526543
0.587182 0.58146 0.572717
0.434165 0.58909 0.579141
0.434409 0.589395 0.579126
0.434669 0.589685 0.57911
0.435309 0.590341 0.578988
0.43714 0.59118 0.577752
0.481987 0.590967 0.57351
0.57229 0.588342 0.568109
0.586084 0.586709 0.575936
0.585672 0.58587 0.584558
0.447532 0.589883 0.591302
0.448051 0.589883 0.591287
0.44889 0.589868 0.591272
0.452735 0.58967 0.591058
0.465782 0.589502 0.59089
0.504204 0.588647 0.589807
0.565301 0.58674 0.587213
0.585458 0.585748 0.585794
0.585657 0.585733 0.585779
0.0803388 0.201785 0.32369
0.0785382 0.196063 0.32047
0.0827649 0.179278 0.333623
0.350591 0.206928 0.368627
0.476036 0.239673 0.358434
0.555734 0.287846 0.341283
0.608637 0.368719 0.371054
0.605478 0.459297 0.447395
0.591363 0.551736 0.554376
0.0876631 0.209796 0.327443
0.085481 0.204242 0.323552
0.0919966 0.187411 0.335302
0.352087 0.215122 0.367636
0.478859 0.250492 0.356542
0.562905 0.29749 0.337285
0.609369 0.373617 0.369085
0.605417 0.460853 0.447333
0.591302 0.551934 0.554406
0.114565 0.236042 0.340703
0.109926 0.231937 0.336568
0.116838 0.217426 0.340276
0.351614 0.242741 0.365545
0.483558 0.271275 0.352987
0.572763 0.312032 0.330678
0.609857 0.38114 0.36669
0.60528 0.463142 0.447364
0.591196 0.552254 0.554452
0.230594 0.366552 0.397635
0.229618 0.365286 0.393668
0.233921 0.360265 0.380789
0.355138 0.361975 0.371984
0.512062 0.360067 0.338293
0.590616 0.363043 0.311177
0.611063 0.404379 0.360479
0.604746 0.469917 0.447761
0.59115 0.553155 0.55491
0.301045 0.446738 0.416449
0.30399 0.452399 0.409155
0.309712 0.460914 0.39678
0.354864 0.480873 0.344228
0.507698 0.500908 0.379568
0.586252 0.491966 0.353048
0.608042 0.474403 0.373754
0.603159 0.49163 0.451728
0.590677 0.556588 0.556283
0.347555 0.504738 0.450919
0.353933 0.511452 0.441535
0.363607 0.521599 0.429343
0.385687 0.547845 0.380545
0.510628 0.555016 0.385595
0.571557 0.567605 0.410224
0.598505 0.557412 0.422889
0.597894 0.540658 0.480415
0.589303 0.565927 0.560342
0.401816 0.561318 0.521965
0.404883 0.564569 0.520485
0.408911 0.568994 0.517891
0.418814 0.5785 0.508797
0.4365 0.591104 0.475547
0.5561 0.585901 0.488594
0.585397 0.588083 0.507607
0.58706 0.584466 0.527962
0.587182 0.581399 0.572992
0.434119 0.589014 0.5794
0.434363 0.589319 0.579385
0.434653 0.589639 0.579385
0.435294 0.590295 0.579263
0.437064 0.59115 0.578103
0.48159 0.590936 0.573861
0.572168 0.588327 0.568276
0.586084 0.586694 0.57612
0.585657 0.58587 0.584604
0.447425 0.589868 0.591287
0.447913 0.589883 0.591287
0.448753 0.589868 0.591272
0.452522 0.589685 0.591073
0.465599 0.589502 0.59089
0.504067 0.588647 0.589807
0.565255 0.58674 0.587213
0.585458 0.585748 0.585794
0.585657 0.585733 0.585779
0.202594 0.34258 0.452796
0.20032 0.340291 0.454582
0.195315 0.334936 0.458473
0.275456 0.312047 0.471168
0.479698 0.327092 0.477089
0.554101 0.329641 0.470314
0.595865 0.381277 0.450736
0.604379 0.459419 0.468467
0.591089 0.551736 0.556756
0.20528 0.345708 0.45388
0.203006 0.343374 0.455543
0.199619 0.338521 0.459693
0.278782 0.315953 0.471733
0.480705 0.33106 0.477409
0.555444 0.335729 0.470146
0.59736 0.385092 0.450004
0.604318 0.460883 0.46836
0.591028 0.551949 0.556786
0.209674 0.351568 0.456352
0.208331 0.349538 0.457725
0.207218 0.344991 0.461433
0.283757 0.323247 0.472892
0.481971 0.338094 0.477668
0.557382 0.345968 0.469566
0.599237 0.390799 0.448554
0.604196 0.463157 0.468299
0.590921 0.552254 0.556832
0.242542 0.383536 0.466758
0.242863 0.382895 0.467399
0.245808 0.380728 0.469245
0.302632 0.364752 0.481743
0.487007 0.377722 0.479805
0.563516 0.380224 0.467079
0.604105 0.407675 0.444678
0.603693 0.469627 0.468406
0.590921 0.553231 0.557305
0.327169 0.478874 0.501274
0.329595 0.48127 0.499962
0.333318 0.484779 0.498848
0.36437 0.491035 0.490288
0.48986 0.490669 0.480171
0.584436 0.475425 0.452384
0.606226 0.460533 0.432074
0.602365 0.489326 0.469856
0.590524 0.55642 0.558465
0.365652 0.520562 0.512154
0.37023 0.525704 0.50959
0.375326 0.532677 0.50605
0.389395 0.549722 0.491798
0.460136 0.563836 0.44596
0.565621 0.562936 0.478477
0.597742 0.552758 0.463828
0.597391 0.538247 0.491096
0.589166 0.565759 0.562112
0.402106 0.56051 0.533333
0.405158 0.563867 0.532372
0.408911 0.568322 0.530419
0.418219 0.578088 0.524437
0.435966 0.590402 0.498451
0.549004 0.586999 0.496193
0.585046 0.587213 0.518868
0.587289 0.583734 0.533608
0.587137 0.581277 0.573953
0.433982 0.588754 0.580331
0.434241 0.589059 0.580316
0.434592 0.589487 0.580301
0.435248 0.590188 0.580224
0.436805 0.591043 0.57937
0.480278 0.590829 0.575235
0.571633 0.588266 0.569268
0.586069 0.586633 0.576577
0.585657 0.58587 0.584665
0.447089 0.589853 0.591272
0.447532 0.589868 0.591287
0.448356 0.589868 0.591287
0.45185 0.589731 0.591119
0.464988 0.589517 0.59089
0.503624 0.588632 0.589792
0.565118 0.58674 0.587213
0.585458 0.585748 0.585794
0.585657 0.585733 0.585779
0.302968 0.453513 0.550317
0.30309 0.452445 0.551598
0.304128 0.450889 0.553185
0.323095 0.445686 0.557137
0.440955 0.43595 0.550439
0.558404 0.429328 0.547112
0.592325 0.432395 0.535958
0.599939 0.47393 0.522011
0.590143 0.552056 0.564248
0.304051 0.454643 0.550423
0.304189 0.453574 0.551705
0.305257 0.452079 0.553323
0.324224 0.446876 0.557427
0.441627 0.437186 0.550439
0.558572 0.430762 0.547082
0.592462 0.434562 0.535882
0.599817 0.474968 0.522057
0.590127 0.552285 0.56434
0.305776 0.456397 0.550835
0.305837 0.455436 0.55198
0.307225 0.453941 0.553506
0.325856 0.448844 0.557717
0.442405 0.438941 0.550195
0.558999 0.433021 0.547234
0.59263 0.437888 0.535805
0.599695 0.476616 0.522194
0.590158 0.552636 0.564508
0.31165 0.462287 0.551232
0.312047 0.46186 0.552285
0.314031 0.460502 0.55404
0.331106 0.45597 0.558465
0.445441 0.446235 0.550332
0.559762 0.441154 0.547051
0.593072 0.447791 0.535607
0.599496 0.48159 0.522774
0.590143 0.553735 0.564935
0.339315 0.491768 0.552193
0.340169 0.491737 0.552987
0.341817 0.491707 0.554421
0.353124 0.490883 0.559274
0.451453 0.481498 0.554467
0.561807 0.482536 0.546746
0.593744 0.479332 0.534798
0.598367 0.496345 0.524056
0.589792 0.556802 0.565988
0.384512 0.540276 0.556954
0.38732 0.543053 0.557839
0.391058 0.546548 0.55906
0.400488 0.555627 0.560784
0.446845 0.563943 0.55494
0.556146 0.55761 0.546624
0.593103 0.546426 0.535668
0.594736 0.534585 0.52784
0.588647 0.565499 0.568856
0.412146 0.56762 0.568032
0.414481 0.569924 0.568338
0.417716 0.573281 0.568795
0.424491 0.580209 0.568994
0.432532 0.587884 0.563607
0.520729 0.589258 0.5467
0.5832 0.584192 0.556771
0.588281 0.581048 0.552682
0.586892 0.580987 0.576913
0.433692 0.58819 0.583688
0.433967 0.588464 0.583764
0.434348 0.588861 0.583902
0.435203 0.589776 0.583993
0.436377 0.590646 0.583841
0.476204 0.590387 0.58027
0.569543 0.587915 0.573968
0.585962 0.586358 0.579034
0.585641 0.58584 0.584863
0.445823 0.589868 0.591302
0.446403 0.589853 0.591287
0.447196 0.589868 0.591287
0.449714 0.589837 0.591241
0.46331 0.589487 0.59086
0.502007 0.588678 0.589853
0.564691 0.58677 0.587243
0.585458 0.585748 0.585794
0.585657 0.585733 0.585779
0.385336 0.532174 0.597314
0.386831 0.531899 0.597406
0.389136 0.531487 0.597543
0.396216 0.530205 0.598001
0.428901 0.526314 0.597253
0.528084 0.519585 0.584344
0.586206 0.509819 0.582055
0.592157 0.511559 0.577813
0.588357 0.555749 0.580911
0.385458 0.532433 0.597299
0.386969 0.532158 0.597391
0.389273 0.531746 0.597513
0.396384 0.530465 0.597971
0.428992 0.526574 0.597223
0.528161 0.519844 0.584329
0.586206 0.510155 0.58204
0.592218 0.512062 0.57792
0.588342 0.555917 0.580926
0.385672 0.53283 0.597253
0.387182 0.532555 0.597345
0.389487 0.532128 0.597467
0.396628 0.530861 0.597925
0.429145 0.527001 0.597208
0.528298 0.520226 0.584329
0.586206 0.510658 0.58201
0.592187 0.512856 0.577981
0.588312 0.556191 0.580957
0.386603 0.534096 0.597101
0.387839 0.533867 0.597192
0.390143 0.533455 0.59733
0.397406 0.532174 0.597787
0.429389 0.528115 0.596963
0.528817 0.521447 0.584405
0.586343 0.512215 0.582147
0.591882 0.515328 0.577966
0.588205 0.557015 0.581064
0.391257 0.53846 0.596597
0.391897 0.538338 0.596735
0.392966 0.538125 0.596933
0.399664 0.536843 0.597177
0.430457 0.533257 0.596902
0.529763 0.525856 0.58381
0.585946 0.517998 0.58172
0.591318 0.522698 0.578134
0.587915 0.55964 0.581399
0.405631 0.558328 0.592706
0.406058 0.558282 0.592767
0.406729 0.558206 0.592889
0.408667 0.558068 0.593378
0.430076 0.556558 0.594232
0.528405 0.547127 0.585855
0.584817 0.545464 0.581338
0.589593 0.544335 0.578531
0.58703 0.566873 0.582177
0.424659 0.579599 0.587945
0.425666 0.580545 0.58822
0.426764 0.581476 0.588479
0.429603 0.583886 0.58912
0.433371 0.587243 0.5897
0.49958 0.587167 0.587076
0.578531 0.581262 0.581674
0.586618 0.579278 0.580545
0.586206 0.580652 0.584237
0.434852 0.589166 0.590814
0.435035 0.589319 0.590875
0.435294 0.589548 0.590967
0.435554 0.589792 0.591211
0.436027 0.589944 0.591424
0.467262 0.589502 0.590677
0.565194 0.586847 0.585763
0.585672 0.585763 0.584772
0.585595 0.585672 0.585611
0.442054 0.589929 0.591394
0.442679 0.589914 0.591379
0.443641 0.589899 0.591348
0.446525 0.589853 0.591287
0.458122 0.589548 0.590936
0.49781 0.588815 0.58999
0.5635 0.586831 0.587335
0.585458 0.585748 0.585794
0.585657 0.585733 0.585779
0.466331 0.574029 0.593881
0.466957 0.573953 0.593851
0.467903 0.573816 0.593805
0.470924 0.573404 0.593652
0.480385 0.572534 0.593591
0.509789 0.569711 0.59321
0.569574 0.564431 0.589929
0.586801 0.561135 0.58938
0.586313 0.571176 0.588342
0.466331 0.574075 0.593866
0.466957 0.573983 0.593835
0.467918 0.573846 0.59379
0.470924 0.573449 0.593637
0.4804 0.57258 0.593591
0.509804 0.569757 0.59321
0.569589 0.564477 0.589914
0.586786 0.561181 0.589364
0.586313 0.571252 0.588342
0.466346 0.574121 0.593835
0.466972 0.574029 0.593805
0.467918 0.573907 0.593759
0.470924 0.573495 0.593606
0.48043 0.572641 0.593576
0.509834 0.569833 0.593194
0.569604 0.564538 0.589899
0.586755 0.561257 0.589334
0.586297 0.571359 0.588327
0.466346 0.574289 0.593759
0.466987 0.574212 0.593729
0.467933 0.574075 0.593683
0.470985 0.573693 0.593561
0.480507 0.572854 0.593545
0.509896 0.570047 0.593164
0.56968 0.564736 0.589883
0.586709 0.561471 0.589273
0.586252 0.571679 0.58822
0.466407 0.574853 0.5935
0.467018 0.574792 0.593484
0.468009 0.574701 0.593469
0.471138 0.574411 0.593423
0.480674 0.573571 0.593408
0.510109 0.570794 0.593072
0.569863 0.565362 0.589761
0.586679 0.562249 0.589166
0.585992 0.572641 0.587839
0.467018 0.577203 0.593179
0.467643 0.577157 0.593179
0.468589 0.577096 0.593164
0.471534 0.576928 0.593164
0.480919 0.576211 0.593057
0.510124 0.573312 0.592432
0.570153 0.567529 0.589181
0.586572 0.565103 0.588815
0.585855 0.575494 0.587381
0.462577 0.586313 0.591699
0.463172 0.586252 0.591669
0.463966 0.586191 0.591638
0.466743 0.585946 0.591485
0.476005 0.58555 0.591394
0.504707 0.5841 0.590753
0.568948 0.577173 0.588617
0.586099 0.576959 0.587198
0.58584 0.58201 0.586542
0.438376 0.589944 0.591424
0.438514 0.589944 0.591424
0.438743 0.589944 0.591424
0.439643 0.58999 0.591455
0.443275 0.58999 0.59144
0.474113 0.589395 0.590738
0.558968 0.586938 0.587503
0.585199 0.585504 0.585855
0.585657 0.585733 0.585779
0.468528 0.58938 0.590707
0.469795 0.589364 0.590677
0.471611 0.589364 0.590661
0.477317 0.589303 0.59057
0.494545 0.588739 0.589899
0.530892 0.588037 0.588968
0.57557 0.586297 0.586572
0.58555 0.585748 0.585779
0.585657 0.585733 0.585779
0.574746 0.586313 0.586587
0.574807 0.586313 0.586587
0.574899 0.586297 0.586587
0.575158 0.586297 0.586572
0.576028 0.586267 0.586526
0.578607 0.586206 0.586419
0.583291 0.585855 0.585931
0.585641 0.585687 0.585794
0.585672 0.585657 0.585794
0.574746 0.586313 0.586587
0.574807 0.586313 0.586587
0.574899 0.586297 0.586587
0.575174 0.586297 0.586572
0.576028 0.586267 0.586526
0.578622 0.586206 0.586404
0.583307 0.585855 0.585931
0.585641 0.585687 0.585794
0.585672 0.585657 0.585794
0.574746 0.586313 0.586587
0.574807 0.586297 0.586587
0.574899 0.586297 0.586587
0.575174 0.586297 0.586572
0.576043 0.586267 0.586526
0.578622 0.586206 0.586404
0.583307 0.585855 0.585931
0.585641 0.585687 0.585794
0.585672 0.585657 0.585794
0.574762 0.586313 0.586603
0.574823 0.586297 0.586587
0.574899 0.586297 0.586587
0.575174 0.586297 0.586572
0.576043 0.586267 0.586526
0.578622 0.586206 0.586419
0.583307 0.58584 0.585916
0.585641 0.585687 0.585794
0.585672 0.585657 0.585794
0.574777 0.586313 0.586603
0.574838 0.586297 0.586587
0.574929 0.586297 0.586587
0.575204 0.586297 0.586572
0.576059 0.586267 0.586526
0.578653 0.586206 0.586419
0.583322 0.58584 0.585916
0.585641 0.585687 0.585794
0.585672 0.585657 0.585794
0.574823 0.586297 0.586587
0.574884 0.586297 0.586587
0.574975 0.586297 0.586587
0.57525 0.586282 0.586572
0.576104 0.586267 0.586526
0.578698 0.586206 0.586404
0.583398 0.58584 0.585916
0.585641 0.585687 0.585794
0.585672 0.585657 0.585794
0.574792 0.586313 0.586587
0.574853 0.586297 0.586587
0.574945 0.586297 0.586587
0.57525 0.586282 0.586572
0.57615 0.586267 0.586526
0.578714 0.586206 0.586404
0.583551 0.58584 0.585885
0.585641 0.585718 0.585779
0.585672 0.585657 0.585794
0.572274 0.586419 0.586755
0.572351 0.586419 0.58674
0.572457 0.586419 0.58674
0.572808 0.586404 0.586725
0.573938 0.586358 0.586648
0.57731 0.586267 0.586496
0.583062 0.585855 0.585962
0.585657 0.585733 0.585779
0.585657 0.585733 0.585779
0.522988 0.58822 0.589227
0.523476 0.58822 0.589227
0.524239 0.588205 0.589197
0.526589 0.588144 0.58912
0.532753 0.587869 0.588769
0.549538 0.587198 0.587869
0.576349 0.586297 0.586557
0.58555 0.585748 0.585779
0.585657 0.585733 0.585779
